;FLAVOR:Marlin
;TIME:4941
;Filament used: 14.6472m
;Layer height: 0.4
;Generated with Cura_SteamEngine 3.6.0
M140 S70
M105
M190 S70
M104 S230
M105
M109 S230
M82 ;absolute extrusion mode
G21 ;metric values
G90 ;absolute positioning
M82 ;set extruder to absolute mode
M107 ;start with the fan off
G28 X0 Y0 ;move X/Y to min endstops
G28 Z0 ;move Z to min endstops
G1 Z15.0 F100 ;move the platform down 15mm
G92 E0 ;zero the extruded length
G1 F200 E3 ;extrude 3mm of feed stock
G92 E0 ;zero the extruded length again
G1 F100
M117 Printing...
G5
G92 E0
G1 F2400 E-2
;LAYER_COUNT:21
;LAYER:0
M106 S255
M204 S3000
M205 X10 Y10
G0 F3000 X49.803 Y61.849 Z0.2
M204 S1800
M205 X8 Y8
;TYPE:SKIRT
G1 F2400 E0
G1 X50.961 Y60.958 E0.10818
G1 X51.303 Y60.713 E0.13932
G1 X53.222 Y59.437 E0.30994
G1 X53.588 Y59.213 E0.34171
G1 X54.854 Y58.494 E0.4495
G1 X55.222 Y58.301 E0.48027
G1 X57.224 Y57.338 E0.64475
G1 X57.739 Y57.119 E0.68618
G1 X60.257 Y56.181 E0.88512
G1 X60.69 Y56.038 E0.91888
G1 X61.968 Y55.668 E1.01739
G1 X62.355 Y55.569 E1.04696
G1 X64.513 Y55.095 E1.21054
G1 X65.095 Y54.996 E1.25425
G1 X68.036 Y54.643 E1.47356
G1 X68.64 Y54.601 E1.51838
G1 X72.554 Y54.522 E1.80822
G1 X72.678 Y54.521 E1.81741
G1 X169.488 Y54.539 E8.98493
G1 X170.185 Y54.579 E9.03662
G1 X170.873 Y54.699 E9.08833
G1 X171.543 Y54.896 E9.14003
G1 X172.186 Y55.169 E9.19175
G1 X172.793 Y55.513 E9.24341
G1 X173.358 Y55.924 E9.29514
G1 X173.871 Y56.398 E9.34685
G1 X174.327 Y56.926 E9.3985
G1 X174.72 Y57.504 E9.45025
G1 X175.044 Y58.122 E9.50191
G1 X175.295 Y58.774 E9.55364
G1 X175.47 Y59.45 E9.60533
G1 X175.567 Y60.141 E9.657
G1 X175.587 Y60.638 E9.69382
G1 X175.597 Y152.49 E16.49427
G1 X175.557 Y153.187 E16.54596
G1 X175.438 Y153.875 E16.59766
G1 X175.241 Y154.545 E16.64936
G1 X174.968 Y155.188 E16.70108
G1 X174.624 Y155.796 E16.7528
G1 X174.213 Y156.36 E16.80447
G1 X173.74 Y156.874 E16.85618
G1 X173.211 Y157.33 E16.90789
G1 X172.634 Y157.723 E16.95958
G1 X172.015 Y158.047 E17.01131
G1 X171.364 Y158.298 E17.06296
G1 X170.688 Y158.474 E17.11468
G1 X169.996 Y158.571 E17.16642
G1 X169.497 Y158.591 E17.20339
G1 X75.868 Y158.59 E24.13541
G1 X75.171 Y158.55 E24.18709
G1 X74.483 Y158.431 E24.23879
G1 X73.813 Y158.233 E24.29051
G1 X73.17 Y157.961 E24.3422
G1 X72.562 Y157.617 E24.39392
G1 X71.998 Y157.205 E24.44564
G1 X71.485 Y156.732 E24.4973
G1 X71.029 Y156.203 E24.54901
G1 X70.534 Y155.449 E24.61578
G1 X41.147 Y102.484 E29.10031
G1 X40.894 Y101.972 E29.14259
G1 X39.763 Y99.39 E29.35129
G1 X39.537 Y98.792 E29.39862
G1 X38.706 Y96.18 E29.60156
G1 X38.586 Y95.751 E29.63454
G1 X38.301 Y94.56 E29.7252
G1 X38.241 Y94.279 E29.74648
G1 X38.011 Y93.069 E29.83767
G1 X37.951 Y92.688 E29.86622
G1 X37.674 Y90.477 E30.0312
G1 X37.63 Y89.907 E30.07352
G1 X37.545 Y87.148 E30.27789
G1 X37.553 Y86.591 E30.31913
G1 X37.686 Y84.399 E30.48172
G1 X37.747 Y83.835 E30.52372
G1 X38.169 Y81.107 E30.7281
G1 X38.255 Y80.659 E30.76187
G1 X38.542 Y79.424 E30.85574
G1 X38.643 Y79.047 E30.88464
G1 X39.269 Y76.967 E31.04546
G1 X39.453 Y76.443 E31.08658
G1 X40.473 Y73.914 E31.28847
G1 X40.66 Y73.496 E31.32238
G1 X41.208 Y72.386 E31.41403
G1 X41.392 Y72.042 E31.44291
G1 X42.526 Y70.073 E31.61114
G1 X42.834 Y69.592 E31.65342
G1 X44.423 Y67.348 E31.857
G1 X44.777 Y66.894 E31.89962
G1 X46.265 Y65.165 E32.06851
G1 X46.545 Y64.861 E32.09911
G1 X47.524 Y63.868 E32.20235
G1 X47.822 Y63.586 E32.23273
G1 X49.477 Y62.119 E32.39647
G1 X49.803 Y61.849 E32.4278
M204 S3000
M205 X10 Y10
G0 F3000 X50.315 Y62.515
M204 S1800
M205 X8 Y8
G1 F2400 X51.473 Y61.624 E32.53598
G1 X51.769 Y61.413 E32.56289
G1 X53.688 Y60.137 E32.73351
G1 X54.002 Y59.943 E32.76084
G1 X55.268 Y59.224 E32.86863
G1 X55.586 Y59.058 E32.89519
G1 X57.588 Y58.095 E33.05967
G1 X58.032 Y57.906 E33.0954
G1 X60.55 Y56.968 E33.29434
G1 X60.923 Y56.844 E33.32344
G1 X62.201 Y56.474 E33.42194
G1 X62.536 Y56.389 E33.44753
G1 X64.694 Y55.915 E33.61111
G1 X65.195 Y55.83 E33.64873
G1 X68.136 Y55.477 E33.86804
G1 X68.657 Y55.441 E33.90671
G1 X72.571 Y55.362 E34.19655
G1 X72.678 Y55.361 E34.20447
G1 X169.488 Y55.379 E41.372
G1 X170.135 Y55.419 E41.41999
G1 X170.772 Y55.538 E41.46797
G1 X171.39 Y55.735 E41.51599
G1 X171.979 Y56.007 E41.56402
G1 X172.53 Y56.349 E41.61204
G1 X173.035 Y56.756 E41.66006
G1 X173.486 Y57.222 E41.70807
G1 X173.876 Y57.739 E41.75602
G1 X174.199 Y58.301 E41.80401
G1 X174.451 Y58.899 E41.85205
G1 X174.627 Y59.523 E41.90006
G1 X174.725 Y60.164 E41.94806
G1 X174.747 Y60.638 E41.9832
G1 X174.757 Y152.49 E48.78365
G1 X174.717 Y153.138 E48.83172
G1 X174.598 Y153.775 E48.87969
G1 X174.401 Y154.393 E48.92772
G1 X174.13 Y154.982 E48.97572
G1 X173.788 Y155.533 E49.02373
G1 X173.381 Y156.038 E49.07175
G1 X172.916 Y156.489 E49.11971
G1 X172.398 Y156.879 E49.16772
G1 X171.836 Y157.202 E49.21571
G1 X171.239 Y157.454 E49.26369
G1 X170.615 Y157.631 E49.31171
G1 X169.974 Y157.729 E49.35972
G1 X169.497 Y157.751 E49.39507
G1 X75.868 Y157.75 E56.32709
G1 X75.221 Y157.71 E56.37508
G1 X74.583 Y157.591 E56.42313
G1 X73.966 Y157.394 E56.47108
G1 X73.377 Y157.123 E56.51908
G1 X72.826 Y156.781 E56.5671
G1 X72.321 Y156.374 E56.61512
G1 X71.87 Y155.908 E56.66313
G1 X71.48 Y155.39 E56.71114
G1 X71.269 Y155.042 E56.74127
G1 X41.882 Y102.077 E61.22579
G1 X41.663 Y101.635 E61.26231
G1 X40.532 Y99.053 E61.47101
G1 X40.338 Y98.538 E61.51176
G1 X39.507 Y95.926 E61.71469
G1 X39.403 Y95.555 E61.74322
G1 X39.118 Y94.364 E61.83389
G1 X39.067 Y94.122 E61.8522
G1 X38.837 Y92.912 E61.94339
G1 X38.785 Y92.584 E61.96797
G1 X38.508 Y90.373 E62.13295
G1 X38.469 Y89.881 E62.16949
G1 X38.384 Y87.122 E62.37385
G1 X38.392 Y86.641 E62.40947
G1 X38.525 Y84.449 E62.57206
G1 X38.577 Y83.964 E62.60817
G1 X38.999 Y81.236 E62.81255
G1 X39.074 Y80.849 E62.84173
G1 X39.361 Y79.614 E62.93561
G1 X39.447 Y79.289 E62.9605
G1 X40.073 Y77.209 E63.12132
G1 X40.232 Y76.758 E63.15672
G1 X41.252 Y74.229 E63.35862
G1 X41.413 Y73.867 E63.38795
G1 X41.961 Y72.757 E63.4796
G1 X42.12 Y72.461 E63.50448
G1 X43.254 Y70.492 E63.6727
G1 X43.519 Y70.077 E63.70916
G1 X45.108 Y67.833 E63.91273
G1 X45.414 Y67.442 E63.94949
G1 X46.902 Y65.713 E64.11838
G1 X47.143 Y65.451 E64.14474
G1 X48.122 Y64.458 E64.24798
G1 X48.379 Y64.215 E64.27417
G1 X50.034 Y62.748 E64.4379
G1 X50.315 Y62.515 E64.46493
M204 S3000
M205 X10 Y10
G0 F3000 X50.828 Y63.181
M204 S1800
M205 X8 Y8
G1 F2400 X51.986 Y62.29 E64.57311
G1 X52.234 Y62.112 E64.59571
G1 X54.153 Y60.836 E64.76633
G1 X54.417 Y60.674 E64.78926
G1 X55.683 Y59.955 E64.89705
G1 X55.95 Y59.815 E64.91937
G1 X57.952 Y58.852 E65.08385
G1 X58.325 Y58.693 E65.11387
G1 X60.843 Y57.755 E65.31281
G1 X61.157 Y57.651 E65.3373
G1 X62.435 Y57.281 E65.43581
G1 X62.716 Y57.21 E65.45726
G1 X64.874 Y56.736 E65.62084
G1 X65.295 Y56.664 E65.65247
G1 X68.236 Y56.311 E65.87177
G1 X68.674 Y56.281 E65.90428
G1 X72.588 Y56.202 E66.19412
G1 X72.678 Y56.201 E66.20078
G1 X169.488 Y56.219 E73.36831
G1 X170.081 Y56.259 E73.41231
G1 X170.663 Y56.378 E73.45629
G1 X171.224 Y56.575 E73.50032
G1 X171.754 Y56.844 E73.54432
G1 X172.242 Y57.183 E73.58831
G1 X172.681 Y57.584 E73.63233
G1 X173.062 Y58.04 E73.67633
G1 X173.378 Y58.543 E73.72031
G1 X173.624 Y59.084 E73.76431
G1 X173.796 Y59.653 E73.80832
G1 X173.889 Y60.24 E73.85232
G1 X173.907 Y60.639 E73.88189
G1 X173.917 Y152.491 E80.68234
G1 X173.877 Y153.083 E80.72627
G1 X173.758 Y153.666 E80.77033
G1 X173.562 Y154.227 E80.81432
G1 X173.292 Y154.756 E80.85829
G1 X172.954 Y155.245 E80.9023
G1 X172.553 Y155.684 E80.94633
G1 X172.097 Y156.065 E80.99032
G1 X171.594 Y156.382 E81.03434
G1 X171.053 Y156.628 E81.07834
G1 X170.484 Y156.799 E81.12233
G1 X169.898 Y156.893 E81.16627
G1 X169.497 Y156.911 E81.19599
G1 X75.868 Y156.91 E88.128
G1 X75.275 Y156.87 E88.17201
G1 X74.693 Y156.751 E88.21599
G1 X74.132 Y156.555 E88.25998
G1 X73.602 Y156.285 E88.30402
G1 X73.114 Y155.947 E88.34797
G1 X72.675 Y155.546 E88.39199
G1 X72.294 Y155.09 E88.43599
G1 X72.003 Y154.634 E88.47604
G1 X42.616 Y101.669 E92.96056
G1 X42.432 Y101.298 E92.99122
G1 X41.301 Y98.716 E93.19992
G1 X41.138 Y98.283 E93.23418
G1 X40.307 Y95.671 E93.43711
G1 X40.22 Y95.36 E93.46102
G1 X39.935 Y94.169 E93.55169
G1 X39.892 Y93.965 E93.56712
G1 X39.662 Y92.755 E93.65831
G1 X39.618 Y92.479 E93.679
G1 X39.341 Y90.268 E93.84398
G1 X39.309 Y89.855 E93.87465
G1 X39.224 Y87.096 E94.07901
G1 X39.23 Y86.692 E94.10893
G1 X39.363 Y84.5 E94.27152
G1 X39.407 Y84.092 E94.3019
G1 X39.829 Y81.364 E94.50627
G1 X39.892 Y81.04 E94.53071
G1 X40.179 Y79.805 E94.62458
G1 X40.252 Y79.531 E94.64558
G1 X40.878 Y77.451 E94.8064
G1 X41.011 Y77.072 E94.83614
G1 X42.031 Y74.543 E95.03803
G1 X42.167 Y74.239 E95.06269
G1 X42.715 Y73.129 E95.15434
G1 X42.848 Y72.88 E95.17524
G1 X43.982 Y70.911 E95.34347
G1 X44.205 Y70.563 E95.37407
G1 X45.794 Y68.319 E95.57764
G1 X46.051 Y67.99 E95.60855
G1 X47.539 Y66.261 E95.77744
G1 X47.741 Y66.041 E95.79955
G1 X48.72 Y65.048 E95.90279
G1 X48.936 Y64.843 E95.92484
G1 X50.591 Y63.376 E96.08858
G1 X50.828 Y63.181 E96.1113
M204 S3000
M205 X10 Y10
G1 F2400 E94.1113
;MESH:drukuj rano.stl
G0 F3000 X51.047 Y68.018
G0 X52.39 Y69.423
G0 X73.249 Y144.957
G0 X73.162 Y145.005
M204 S1800
M205 X8 Y8
;TYPE:WALL-INNER
G1 F2400 E96.1113
G1 F1800 X53.128 Y108.941 E99.1657
G1 X49.293 Y102.093 E99.7468
G1 X47.912 Y99.594 E99.95819
G1 X47.456 Y98.658 E100.03527
G1 X47.071 Y97.845 E100.10187
G1 X46.616 Y96.742 E100.19021
G1 X46.213 Y95.626 E100.27806
G1 X45.87 Y94.521 E100.36372
G1 X45.568 Y93.356 E100.45282
G1 X45.328 Y92.213 E100.53929
G1 X45.133 Y91.023 E100.62857
G1 X45 Y89.877 E100.71399
G1 X44.918 Y88.69 E100.80208
G1 X44.889 Y87.51 E100.88947
G1 X44.918 Y86.303 E100.97886
G1 X45 Y85.12 E101.06665
G1 X45.133 Y83.978 E101.15178
G1 X45.328 Y82.787 E101.24113
G1 X45.568 Y81.644 E101.3276
G1 X45.87 Y80.479 E101.4167
G1 X46.213 Y79.374 E101.50236
G1 X46.616 Y78.258 E101.59021
G1 X47.072 Y77.156 E101.67851
G1 X47.578 Y76.08 E101.76654
G1 X48.126 Y75.041 E101.85351
G1 X48.725 Y74.021 E101.94109
G1 X49.381 Y73.014 E102.03007
G1 X50.051 Y72.083 E102.11499
G1 X50.804 Y71.132 E102.2048
G1 X51.57 Y70.255 E102.29101
G1 X52.376 Y69.409 E102.37752
G1 X53.234 Y68.59 E102.46534
G1 X54.161 Y67.783 E102.55633
G1 X55.06 Y67.072 E102.64119
G1 X56.031 Y66.373 E102.72977
G1 X57.012 Y65.735 E102.81641
G1 X58.026 Y65.138 E102.90353
G1 X59.098 Y64.573 E102.99325
G1 X60.142 Y64.083 E103.07863
G1 X61.236 Y63.631 E103.16627
G1 X62.375 Y63.219 E103.25594
G1 X63.473 Y62.878 E103.34107
G1 X64.634 Y62.577 E103.42987
G1 X65.781 Y62.336 E103.51664
G1 X66.971 Y62.141 E103.60592
G1 X68.117 Y62.008 E103.69134
G1 X69.322 Y61.925 E103.78076
G1 X70.095 Y61.887 E103.83806
G1 X72.855 Y61.881 E104.0424
G1 X80.392 Y61.907 E104.60043
G1 X159.608 Y61.907 E110.46535
G1 X167.143 Y61.882 E111.02322
G1 X168.247 Y61.885 E111.10495
G1 X168.247 Y151.24 E117.72054
G1 X76.603 Y151.24 E124.50559
G1 X75.908 Y149.992 E124.61135
G1 X73.162 Y145.005 E125.03284
M204 S3000
M205 X10 Y10
G0 F3000 X72.427 Y145.412
M204 S1800
M205 X8 Y8
;TYPE:WALL-OUTER
G1 F1800 X52.394 Y109.35 E128.08708
G1 X48.56 Y102.503 E128.66807
G1 X47.168 Y99.985 E128.88109
G1 X46.701 Y99.025 E128.96013
G1 X46.302 Y98.182 E129.02918
G1 X45.832 Y97.044 E129.12033
G1 X45.417 Y95.895 E129.21078
G1 X45.061 Y94.747 E129.29977
G1 X44.75 Y93.546 E129.39162
G1 X44.502 Y92.369 E129.48068
G1 X44.302 Y91.145 E129.5725
G1 X44.163 Y89.946 E129.66186
G1 X44.078 Y88.724 E129.75256
G1 X44.049 Y87.51 E129.84246
G1 X44.078 Y86.269 E129.93437
G1 X44.163 Y85.05 E130.02484
G1 X44.302 Y83.855 E130.11391
G1 X44.502 Y82.631 E130.20573
G1 X44.75 Y81.454 E130.29479
G1 X45.061 Y80.253 E130.38664
G1 X45.417 Y79.105 E130.47563
G1 X45.832 Y77.956 E130.56607
G1 X46.306 Y76.81 E130.65789
G1 X46.818 Y75.722 E130.74692
G1 X47.396 Y74.624 E130.83878
G1 X48.015 Y73.571 E130.92922
G1 X48.677 Y72.555 E131.019
G1 X49.384 Y71.572 E131.10865
G1 X50.154 Y70.599 E131.20051
G1 X50.947 Y69.692 E131.28971
G1 X51.796 Y68.801 E131.38083
G1 X52.673 Y67.964 E131.47059
G1 X53.615 Y67.144 E131.56305
G1 X54.559 Y66.397 E131.65218
G1 X55.548 Y65.685 E131.7424
G1 X56.573 Y65.019 E131.8329
G1 X57.618 Y64.404 E131.92267
G1 X58.716 Y63.825 E132.01458
G1 X59.805 Y63.314 E132.10364
G1 X60.941 Y62.844 E132.19466
G1 X62.099 Y62.425 E132.28583
G1 X63.247 Y62.069 E132.37482
G1 X64.444 Y61.759 E132.46637
G1 X65.625 Y61.51 E132.55573
G1 X66.849 Y61.31 E132.64755
G1 X68.048 Y61.171 E132.73692
G1 X69.272 Y61.086 E132.82776
G1 X70.074 Y61.047 E132.8872
G1 X72.856 Y61.041 E133.09317
G1 X80.393 Y61.067 E133.6512
G1 X159.607 Y61.067 E139.51597
G1 X167.143 Y61.042 E140.07391
G1 X169.087 Y61.048 E140.21784
G1 X169.087 Y152.08 E146.95758
G1 X76.109 Y152.08 E153.8414
G1 X75.174 Y150.4 E153.98375
G1 X72.427 Y145.412 E154.40535
M204 S3000
M205 X10 Y10
G0 F3000 X72.282 Y145.15
G0 X73.104 Y144.695
G0 X73.889 Y144.604
M204 S1800
M205 X8 Y8
;TYPE:SKIN
G1 F1800 X53.853 Y108.536 E157.46007
G1 X50.084 Y101.807 E158.0311
G1 X48.655 Y99.222 E158.24978
G1 X48.203 Y98.294 E158.3262
G1 X47.822 Y97.49 E158.39207
G1 X47.397 Y96.46 E158.47457
G1 X46.994 Y95.344 E158.56241
G1 X46.668 Y94.291 E158.64403
G1 X46.372 Y93.148 E158.73144
G1 X46.144 Y92.061 E158.81367
G1 X45.954 Y90.903 E158.90055
G1 X45.828 Y89.812 E158.98186
G1 X45.748 Y88.657 E159.06758
G1 X45.719 Y87.51 E159.15253
G1 X45.748 Y86.323 E159.24044
G1 X45.828 Y85.177 E159.32549
G1 X45.955 Y84.093 E159.4063
G1 X46.144 Y82.939 E159.49287
G1 X46.372 Y81.852 E159.5751
G1 X46.669 Y80.705 E159.66282
G1 X46.994 Y79.656 E159.74413
G1 X47.397 Y78.54 E159.83198
G1 X47.839 Y77.474 E159.91742
G1 X48.321 Y76.45 E160.00121
G1 X48.842 Y75.462 E160.08391
G1 X49.441 Y74.442 E160.17148
G1 X50.061 Y73.49 E160.2556
G1 X50.701 Y72.599 E160.33682
G1 X51.442 Y71.663 E160.4252
G1 X52.183 Y70.815 E160.50858
G1 X52.963 Y69.996 E160.59231
G1 X53.793 Y69.204 E160.67725
G1 X54.691 Y68.422 E160.76541
G1 X55.554 Y67.739 E160.8469
G1 X56.507 Y67.053 E160.93383
G1 X57.455 Y66.437 E161.01754
G1 X58.413 Y65.873 E161.09984
G1 X59.485 Y65.308 E161.18956
G1 X60.467 Y64.847 E161.26988
G1 X61.527 Y64.409 E161.35479
G1 X62.632 Y64.009 E161.4418
G1 X63.704 Y63.676 E161.52491
G1 X64.842 Y63.381 E161.61195
G1 X65.933 Y63.152 E161.69448
G1 X67.091 Y62.962 E161.78136
G1 X68.182 Y62.836 E161.86267
G1 X69.379 Y62.753 E161.95151
G1 X70.097 Y62.717 E162.00473
G1 X72.855 Y62.711 E162.20893
G1 X80.39 Y62.737 E162.7668
G1 X159.61 Y62.737 E168.63202
G1 X167.417 Y62.713 E169.21003
G1 X167.417 Y150.41 E175.70285
G1 X77.091 Y150.41 E182.39033
G1 X73.889 Y144.604 E182.88122
M204 S3000
M205 X10 Y10
G0 F3000 X77.554 Y150.019
M204 S1800
M205 X8 Y8
G1 F1800 X77.034 Y149.498 E182.93572
M204 S3000
M205 X10 Y10
G0 F3000 X78.742 Y150.019
M204 S1800
M205 X8 Y8
G1 F1800 X75.572 Y146.849 E183.26763
G1 X75.466 Y146.743
M204 S3000
M205 X10 Y10
G0 F3000 X74.109 Y144.198
M204 S1800
M205 X8 Y8
G1 F1800 X79.93 Y150.019 E183.87712
M204 S3000
M205 X10 Y10
G0 F3000 X81.118 Y150.019
M204 S1800
M205 X8 Y8
G1 F1800 X72.624 Y141.525 E184.76647
G1 X72.518 Y141.419
M204 S3000
M205 X10 Y10
G0 F3000 X71.14 Y138.853
M204 S1800
M205 X8 Y8
G1 F1800 X82.306 Y150.019 E185.9356
M204 S3000
M205 X10 Y10
G0 F3000 X83.494 Y150.019
M204 S1800
M205 X8 Y8
G1 F1800 X69.656 Y136.18 E187.38455
G1 X69.55 Y136.074
M204 S3000
M205 X10 Y10
G0 F3000 X68.172 Y133.508
M204 S1800
M205 X8 Y8
G1 F1800 X84.682 Y150.019 E189.11327
M204 S3000
M205 X10 Y10
G0 F3000 X85.87 Y150.019
M204 S1800
M205 X8 Y8
G1 F1800 X66.687 Y130.835 E191.12186
G1 X66.581 Y130.729
M204 S3000
M205 X10 Y10
G0 F3000 X65.203 Y128.163
M204 S1800
M205 X8 Y8
G1 F1800 X87.058 Y150.019 E193.41023
M204 S3000
M205 X10 Y10
