;FLAVOR:Marlin
;TIME:9829
;Filament used: 22.2417m
;Layer height: 0.3
;Generated with Cura_SteamEngine 3.6.0
M140 S70
M105
M190 S70
M104 S230
M105
M109 S230
M82 ;absolute extrusion mode
G21 ;metric values
G90 ;absolute positioning
M82 ;set extruder to absolute mode
M107 ;start with the fan off
G28 X0 Y0 ;move X/Y to min endstops
G28 Z0 ;move Z to min endstops
G1 Z15.0 F100 ;move the platform down 15mm
G92 E0 ;zero the extruded length
G1 F200 E3 ;extrude 3mm of feed stock
G92 E0 ;zero the extruded length again
G1 F100
M117 Printing...
G5
G92 E0
G1 F2400 E-2
;LAYER_COUNT:28
;LAYER:0
M106 S255
M204 S3000
M205 X10 Y10
G0 F3000 X9.227 Y27.697 Z0.2
M204 S1800
M205 X8 Y8
;TYPE:SKIRT
G1 F2400 E0
G1 X9.894 Y27.489 E0.05173
G1 X10.58 Y27.358 E0.10344
G1 X11.375 Y27.306 E0.16242
G1 X198.62 Y27.297 E14.02549
G1 X199.317 Y27.337 E14.07718
G1 X200.005 Y27.456 E14.12887
G1 X200.675 Y27.653 E14.18058
G1 X201.318 Y27.926 E14.2323
G1 X201.925 Y28.27 E14.28395
G1 X202.49 Y28.681 E14.33568
G1 X203.003 Y29.155 E14.38739
G1 X203.459 Y29.683 E14.43904
G1 X203.852 Y30.261 E14.49079
G1 X204.176 Y30.879 E14.54245
G1 X204.427 Y31.531 E14.59418
G1 X204.603 Y32.207 E14.6459
G1 X204.7 Y32.898 E14.69756
G1 X204.717 Y33.596 E14.74925
G1 X204.654 Y34.292 E14.80099
G1 X204.512 Y34.975 E14.85264
G1 X204.293 Y35.638 E14.90434
G1 X203.952 Y36.361 E14.96352
G1 X133.359 Y163.357 E25.72092
G1 X133.077 Y163.815 E25.76074
G1 X131.444 Y166.225 E25.97627
G1 X131.143 Y166.632 E26.01375
G1 X130.103 Y167.922 E26.13643
G1 X129.81 Y168.258 E26.16944
G1 X128.265 Y169.911 E26.33695
G1 X127.964 Y170.212 E26.36847
G1 X126.873 Y171.227 E26.4788
G1 X126.557 Y171.501 E26.50976
G1 X124.868 Y172.869 E26.67068
G1 X124.519 Y173.132 E26.70304
G1 X123.156 Y174.083 E26.82608
G1 X122.789 Y174.32 E26.85843
G1 X120.903 Y175.444 E27.02098
G1 X120.458 Y175.685 E27.05845
G1 X118.444 Y176.669 E27.2244
G1 X117.883 Y176.909 E27.26958
G1 X114.94 Y177.998 E27.50191
G1 X114.348 Y178.183 E27.54783
G1 X112.145 Y178.752 E27.71629
G1 X111.738 Y178.843 E27.74716
G1 X110.3 Y179.111 E27.85546
G1 X109.883 Y179.174 E27.88669
G1 X107.679 Y179.429 E28.05095
G1 X107.243 Y179.463 E28.08333
G1 X105.608 Y179.534 E28.20449
G1 X105.168 Y179.537 E28.23707
G1 X102.937 Y179.473 E28.40232
G1 X102.423 Y179.437 E28.44046
G1 X100.153 Y179.179 E28.60961
G1 X99.64 Y179.098 E28.64806
G1 X97.382 Y178.644 E28.81858
G1 X96.963 Y178.545 E28.85046
G1 X95.523 Y178.148 E28.96105
G1 X95.116 Y178.02 E28.99264
G1 X93.006 Y177.276 E29.15828
G1 X92.601 Y177.117 E29.1905
G1 X91.139 Y176.481 E29.30854
G1 X90.749 Y176.295 E29.34053
G1 X88.774 Y175.264 E29.50547
G1 X88.331 Y175.008 E29.54336
G1 X86.455 Y173.819 E29.7078
G1 X86.093 Y173.571 E29.74028
G1 X84.76 Y172.585 E29.86304
G1 X84.419 Y172.313 E29.89533
G1 X82.75 Y170.883 E30.05806
G1 X82.438 Y170.596 E30.08944
G1 X81.345 Y169.519 E30.20305
G1 X81.101 Y169.265 E30.22913
G1 X80.092 Y168.149 E30.34051
G1 X79.825 Y167.832 E30.3712
G1 X78.461 Y166.1 E30.53442
G1 X78.185 Y165.72 E30.5692
G1 X77.096 Y164.094 E30.71408
G1 X76.849 Y163.694 E30.74889
G1 X71.421 Y154.057 E31.56778
G1 X71.404 Y154.025 E31.57046
G1 X6.043 Y36.368 E41.53532
G1 X5.739 Y35.739 E41.58704
G1 X5.509 Y35.08 E41.63872
G1 X5.356 Y34.399 E41.69039
G1 X5.282 Y33.704 E41.74214
G1 X5.288 Y33.006 E41.79382
G1 X5.374 Y32.313 E41.84552
G1 X5.538 Y31.634 E41.89724
G1 X5.779 Y30.979 E41.94891
G1 X6.093 Y30.355 E42.00063
G1 X6.476 Y29.772 E42.05228
G1 X6.923 Y29.235 E42.104
G1 X7.429 Y28.754 E42.15569
G1 X7.987 Y28.334 E42.2074
G1 X8.589 Y27.98 E42.25911
G1 X9.227 Y27.697 E42.31078
M204 S3000
M205 X10 Y10
G0 F3000 X9.566 Y28.467
M204 S1800
M205 X8 Y8
G1 F2400 X10.188 Y28.282 E42.35882
G1 X10.827 Y28.175 E42.40679
G1 X11.375 Y28.146 E42.44742
G1 X198.62 Y28.137 E56.31049
G1 X199.267 Y28.177 E56.35848
G1 X199.904 Y28.296 E56.40646
G1 X200.522 Y28.493 E56.45449
G1 X201.111 Y28.764 E56.50249
G1 X201.662 Y29.106 E56.5505
G1 X202.167 Y29.513 E56.59852
G1 X202.618 Y29.979 E56.64653
G1 X203.008 Y30.496 E56.69448
G1 X203.332 Y31.058 E56.74251
G1 X203.583 Y31.656 E56.79053
G1 X203.76 Y32.28 E56.83855
G1 X203.858 Y32.921 E56.88656
G1 X203.877 Y33.569 E56.93455
G1 X203.816 Y34.214 E56.98252
G1 X203.676 Y34.847 E57.03052
G1 X203.459 Y35.458 E57.07852
G1 X203.217 Y35.953 E57.11932
G1 X132.624 Y162.949 E67.87671
G1 X132.382 Y163.344 E67.91101
G1 X130.749 Y165.754 E68.12654
G1 X130.489 Y166.104 E68.15882
G1 X129.449 Y167.394 E68.28151
G1 X129.197 Y167.685 E68.31001
G1 X127.652 Y169.338 E68.47752
G1 X127.392 Y169.597 E68.50469
G1 X126.301 Y170.612 E68.61502
G1 X126.029 Y170.848 E68.64168
G1 X124.34 Y172.216 E68.8026
G1 X124.039 Y172.443 E68.83051
G1 X122.676 Y173.394 E68.95356
G1 X122.359 Y173.598 E68.98147
G1 X120.473 Y174.722 E69.14402
G1 X120.089 Y174.93 E69.17635
G1 X118.075 Y175.914 E69.34231
G1 X117.591 Y176.121 E69.38128
G1 X114.648 Y177.21 E69.61361
G1 X114.138 Y177.37 E69.65319
G1 X111.935 Y177.939 E69.82164
G1 X111.584 Y178.017 E69.84827
G1 X110.146 Y178.285 E69.95656
G1 X109.787 Y178.339 E69.98344
G1 X107.583 Y178.594 E70.14771
G1 X107.206 Y178.624 E70.17571
G1 X105.571 Y178.695 E70.29687
G1 X105.192 Y178.698 E70.32493
G1 X102.961 Y178.634 E70.49018
G1 X102.518 Y178.602 E70.52306
G1 X100.248 Y178.344 E70.69221
G1 X99.805 Y178.275 E70.7254
G1 X97.547 Y177.821 E70.89592
G1 X97.186 Y177.735 E70.9234
G1 X95.746 Y177.338 E71.03399
G1 X95.395 Y177.228 E71.06122
G1 X93.285 Y176.484 E71.22687
G1 X92.936 Y176.346 E71.25465
G1 X91.474 Y175.71 E71.37269
G1 X91.138 Y175.55 E71.40025
G1 X89.163 Y174.519 E71.5652
G1 X88.781 Y174.299 E71.59783
G1 X86.905 Y173.11 E71.76227
G1 X86.593 Y172.896 E71.79028
G1 X85.26 Y171.91 E71.91304
G1 X84.966 Y171.675 E71.94091
G1 X83.297 Y170.245 E72.10363
G1 X83.027 Y169.998 E72.13072
G1 X81.934 Y168.921 E72.24433
G1 X81.724 Y168.702 E72.26679
G1 X80.715 Y167.586 E72.37818
G1 X80.485 Y167.312 E72.40467
G1 X79.121 Y165.58 E72.56789
G1 X78.883 Y165.253 E72.59783
G1 X77.794 Y163.627 E72.74272
G1 X77.581 Y163.281 E72.7728
G1 X72.153 Y153.644 E73.59169
G1 X72.138 Y153.617 E73.59398
G1 X6.777 Y35.96 E83.55884
G1 X6.498 Y35.375 E83.60682
G1 X6.292 Y34.76 E83.65484
G1 X6.164 Y34.125 E83.7028
G1 X6.115 Y33.478 E83.75084
G1 X6.147 Y32.83 E83.79887
G1 X6.257 Y32.191 E83.84688
G1 X6.445 Y31.571 E83.89485
G1 X6.709 Y30.979 E83.94284
G1 X7.043 Y30.423 E83.99086
G1 X7.443 Y29.912 E84.0389
G1 X7.902 Y29.455 E84.08686
G1 X8.415 Y29.058 E84.13488
G1 X8.972 Y28.727 E84.18285
G1 X9.566 Y28.467 E84.23086
M204 S3000
M205 X10 Y10
G0 F3000 X9.949 Y29.222
M204 S1800
M205 X8 Y8
G1 F2400 X10.523 Y29.069 E84.27484
G1 X11.375 Y28.986 E84.33822
G1 X198.62 Y28.977 E98.20129
G1 X199.213 Y29.017 E98.24529
G1 X199.795 Y29.136 E98.28927
G1 X200.356 Y29.332 E98.33327
G1 X200.886 Y29.602 E98.37731
G1 X201.374 Y29.94 E98.42126
G1 X201.813 Y30.341 E98.46528
G1 X202.194 Y30.797 E98.50927
G1 X202.511 Y31.3 E98.55329
G1 X202.757 Y31.841 E98.59729
G1 X202.928 Y32.41 E98.64128
G1 X203.022 Y32.997 E98.6853
G1 X203.036 Y33.591 E98.72929
G1 X202.97 Y34.182 E98.77331
G1 X202.825 Y34.758 E98.81729
G1 X202.483 Y35.544 E98.88075
G1 X131.89 Y162.54 E109.63815
G1 X131.686 Y162.872 E109.667
G1 X130.053 Y165.282 E109.88253
G1 X129.835 Y165.577 E109.90969
G1 X128.795 Y166.867 E110.03237
G1 X128.583 Y167.111 E110.0563
G1 X127.038 Y168.764 E110.22382
G1 X126.82 Y168.982 E110.24665
G1 X125.729 Y169.997 E110.35697
G1 X125.5 Y170.196 E110.37943
G1 X123.811 Y171.564 E110.54035
G1 X123.558 Y171.754 E110.56378
G1 X122.195 Y172.705 E110.68683
G1 X121.929 Y172.877 E110.71028
G1 X120.043 Y174.001 E110.87283
G1 X119.72 Y174.175 E110.89999
G1 X117.706 Y175.159 E111.06595
G1 X117.3 Y175.333 E111.09865
G1 X114.357 Y176.422 E111.33098
G1 X113.928 Y176.557 E111.36428
G1 X111.725 Y177.126 E111.53274
G1 X111.43 Y177.191 E111.5551
G1 X109.992 Y177.459 E111.6634
G1 X109.69 Y177.505 E111.68602
G1 X107.486 Y177.76 E111.85028
G1 X107.17 Y177.785 E111.87375
G1 X105.535 Y177.856 E111.99492
G1 X105.216 Y177.858 E112.01853
G1 X102.985 Y177.794 E112.18378
G1 X102.613 Y177.768 E112.21139
G1 X100.343 Y177.51 E112.38053
G1 X99.971 Y177.451 E112.40842
G1 X97.713 Y176.997 E112.57894
G1 X97.409 Y176.925 E112.60207
G1 X95.969 Y176.528 E112.71266
G1 X95.674 Y176.435 E112.73556
G1 X93.564 Y175.691 E112.90121
G1 X93.271 Y175.576 E112.92451
G1 X91.809 Y174.94 E113.04255
G1 X91.527 Y174.805 E113.0657
G1 X89.552 Y173.774 E113.23065
G1 X89.231 Y173.589 E113.25808
G1 X87.355 Y172.4 E113.42252
G1 X87.093 Y172.221 E113.44601
G1 X85.76 Y171.235 E113.56877
G1 X85.512 Y171.037 E113.59226
G1 X83.843 Y169.607 E113.75498
G1 X83.617 Y169.399 E113.77772
G1 X82.524 Y168.322 E113.89133
G1 X82.347 Y168.138 E113.91023
G1 X81.338 Y167.022 E114.02162
G1 X81.145 Y166.793 E114.0438
G1 X79.781 Y165.061 E114.20702
G1 X79.581 Y164.786 E114.23219
G1 X78.492 Y163.16 E114.37708
G1 X78.313 Y162.869 E114.40238
G1 X72.885 Y153.232 E115.22127
G1 X72.872 Y153.209 E115.22322
G1 X7.511 Y35.552 E125.18808
G1 X7.258 Y35.015 E125.23203
G1 X7.08 Y34.448 E125.27603
G1 X6.979 Y33.862 E125.32005
G1 X6.957 Y33.268 E125.36406
G1 X7.016 Y32.677 E125.40804
G1 X7.153 Y32.099 E125.45201
G1 X7.366 Y31.544 E125.49603
G1 X7.652 Y31.023 E125.54003
G1 X8.006 Y30.545 E125.58407
G1 X8.42 Y30.119 E125.62805
G1 X8.888 Y29.752 E125.67208
G1 X9.4 Y29.452 E125.71602
G1 X9.949 Y29.222 E125.76009
M204 S3000
M205 X10 Y10
G1 F2400 E123.76009
;MESH:klapka_gora_1.stl
G0 F3000 X13.509 Y32.722
G0 X13.509 Y34.657
G0 X127.172 Y159.175
G0 X127.265 Y159.209
M204 S1800
M205 X8 Y8
;TYPE:WALL-INNER
G1 F2400 E125.76009
G1 F1800 X127.261 Y159.228 E125.76152
G1 X126.923 Y159.796 E125.81046
G1 X126.602 Y160.315 E125.85564
G1 X125.776 Y161.536 E125.96478
G1 X124.904 Y162.681 E126.07134
G1 X123.969 Y163.774 E126.17783
G1 X122.956 Y164.83 E126.28617
G1 X121.895 Y165.819 E126.39356
G1 X120.796 Y166.733 E126.49939
G1 X119.615 Y167.607 E126.60816
G1 X118.415 Y168.393 E126.71437
G1 X117.158 Y169.12 E126.82188
G1 X115.865 Y169.772 E126.92909
G1 X114.54 Y170.348 E127.03606
G1 X113.188 Y170.847 E127.14276
G1 X111.792 Y171.275 E127.25086
G1 X110.406 Y171.613 E127.35648
G1 X108.963 Y171.883 E127.46517
G1 X107.53 Y172.066 E127.57213
G1 X106.085 Y172.169 E127.67939
G1 X104.637 Y172.19 E127.7866
G1 X103.189 Y172.128 E127.89391
G1 X101.751 Y171.985 E128.0009
G1 X100.323 Y171.761 E128.10791
G1 X98.899 Y171.454 E128.21577
G1 X97.505 Y171.07 E128.32282
G1 X96.144 Y170.612 E128.42913
G1 X94.787 Y170.065 E128.53746
G1 X93.487 Y169.457 E128.64371
G1 X92.205 Y168.764 E128.75161
G1 X90.978 Y168.008 E128.85831
G1 X89.792 Y167.18 E128.9654
G1 X88.645 Y166.282 E129.07325
G1 X87.568 Y165.333 E129.17953
G1 X86.535 Y164.314 E129.28696
G1 X85.569 Y163.248 E129.39347
G1 X84.637 Y162.093 E129.50335
G1 X83.805 Y160.935 E129.60892
G1 X82.853 Y159.437 E129.74032
G1 X82.642 Y159.042 E129.77348
G1 X77.968 Y150.688 E130.48221
G1 X76.173 Y147.428 E130.75774
G1 X18.082 Y42.862 E139.61395
G1 X15.262 Y37.847 E140.03992
G1 X13.836 Y35.27 E140.25798
G1 X13.492 Y34.647 E140.31067
G1 X14.203 Y34.647 E140.34063
G1 X14.204 Y34.647 E140.34071
G1 X196.484 Y34.647 E153.83618
G1 X133.737 Y147.588 E163.40183
G1 X131.969 Y150.802 E163.67342
G1 X127.265 Y159.209 E164.38666
M204 S3000
M205 X10 Y10
G0 F3000 X128.063 Y159.504
M204 S1800
M205 X8 Y8
;TYPE:WALL-OUTER
G1 F1800 X128.057 Y159.534 E164.38892
G1 X127.645 Y160.226 E164.44855
G1 X127.306 Y160.773 E164.49619
G1 X126.459 Y162.026 E164.60817
G1 X125.559 Y163.208 E164.71816
G1 X124.586 Y164.345 E164.82896
G1 X123.542 Y165.433 E164.94059
G1 X122.457 Y166.444 E165.05039
G1 X121.315 Y167.394 E165.16037
G1 X120.094 Y168.298 E165.27285
G1 X118.863 Y169.104 E165.38179
G1 X117.553 Y169.861 E165.49381
G1 X116.224 Y170.531 E165.604
G1 X114.848 Y171.13 E165.71511
G1 X113.46 Y171.642 E165.82464
G1 X112.014 Y172.085 E165.93661
G1 X110.577 Y172.436 E166.04613
G1 X109.1 Y172.712 E166.15738
G1 X107.608 Y172.903 E166.26874
G1 X106.122 Y173.009 E166.37904
G1 X104.631 Y173.03 E166.48944
G1 X103.124 Y172.966 E166.60111
G1 X101.644 Y172.819 E166.71123
G1 X100.174 Y172.588 E166.8214
G1 X98.694 Y172.269 E166.93349
G1 X97.263 Y171.875 E167.04338
G1 X95.853 Y171.4 E167.15353
G1 X94.448 Y170.834 E167.26568
G1 X93.106 Y170.206 E167.37538
G1 X91.797 Y169.498 E167.48556
G1 X90.506 Y168.703 E167.59781
G1 X89.299 Y167.861 E167.70677
G1 X88.111 Y166.93 E167.81852
G1 X86.989 Y165.942 E167.9292
G1 X85.924 Y164.892 E168.03993
G1 X84.928 Y163.792 E168.1498
G1 X83.976 Y162.613 E168.26199
G1 X83.104 Y161.398 E168.37271
G1 X82.131 Y159.867 E168.50702
G1 X81.905 Y159.446 E168.5424
G1 X77.235 Y151.098 E169.25059
G1 X75.438 Y147.835 E169.52639
G1 X17.349 Y43.272 E178.38233
G1 X14.53 Y38.259 E178.80814
G1 X12.411 Y34.43 E179.13214
G1 X12.067 Y33.807 E179.18483
G1 X12.778 Y33.807 E179.2148
G1 X12.779 Y33.807 E179.21487
G1 X197.911 Y33.807 E192.9215
G1 X134.472 Y147.994 E202.59267
G1 X132.702 Y151.212 E202.86459
G1 X128.063 Y159.504 E203.56805
M204 S3000
M205 X10 Y10
G0 F3000 X128.057 Y159.534
G0 X127.919 Y159.766
G0 X127.111 Y159.285
G0 X126.48 Y158.917
M204 S1800
M205 X8 Y8
;TYPE:SKIN
G1 F1800 X126.217 Y159.36 E203.60619
G1 X125.914 Y159.85 E203.64884
G1 X125.092 Y161.065 E203.75745
G1 X124.264 Y162.153 E203.85868
G1 X123.364 Y163.205 E203.96118
G1 X122.368 Y164.244 E204.06774
G1 X121.346 Y165.196 E204.17115
G1 X120.282 Y166.08 E204.27356
G1 X119.14 Y166.926 E204.37879
G1 X117.986 Y167.682 E204.48093
G1 X116.761 Y168.391 E204.58572
G1 X115.503 Y169.025 E204.69002
G1 X114.244 Y169.572 E204.79165
G1 X112.927 Y170.058 E204.89558
G1 X111.561 Y170.477 E205.00137
G1 X110.237 Y170.8 E205.10227
G1 X108.845 Y171.061 E205.20712
G1 X107.437 Y171.24 E205.3122
G1 X106.049 Y171.339 E205.41523
G1 X104.661 Y171.36 E205.518
G1 X103.237 Y171.298 E205.62353
G1 X101.856 Y171.161 E205.72628
G1 X100.485 Y170.946 E205.82902
G1 X99.086 Y170.644 E205.93499
G1 X97.756 Y170.278 E206.03712
G1 X96.428 Y169.831 E206.14086
G1 X95.11 Y169.3 E206.24606
G1 X93.869 Y168.721 E206.34745
G1 X92.622 Y168.045 E206.45247
G1 X91.425 Y167.308 E206.55654
G1 X90.299 Y166.522 E206.65821
G1 X89.174 Y165.641 E206.764
G1 X88.131 Y164.722 E206.86692
G1 X87.13 Y163.734 E206.97105
G1 X86.197 Y162.706 E207.07383
G1 X85.293 Y161.584 E207.18051
G1 X84.487 Y160.462 E207.28279
G1 X83.57 Y159.019 E207.40938
G1 X83.371 Y158.644 E207.44081
G1 X78.693 Y150.283 E208.15013
G1 X76.9 Y147.027 E208.42533
G1 X18.807 Y42.457 E217.28187
G1 X15.985 Y37.44 E217.70805
G1 X14.9 Y35.477 E217.87411
G1 X195.074 Y35.477 E231.21366
G1 X133.01 Y147.187 E240.67508
G1 X131.244 Y150.397 E240.94633
G1 X126.48 Y158.917 E241.66904
M204 S3000
M205 X10 Y10
G0 F3000 X87.17 Y163.198
M204 S1800
M205 X8 Y8
G1 F1800 X88.479 Y164.507 E241.8061
G1 X88.585 Y164.613
M204 S3000
M205 X10 Y10
G0 F3000 X92.925 Y167.766
M204 S1800
M205 X8 Y8
G1 F1800 X83.823 Y158.663 E242.75917
G1 X83.717 Y158.557
M204 S3000
M205 X10 Y10
G0 F3000 X82.329 Y155.981
M204 S1800
M205 X8 Y8
G1 F1800 X95.305 Y168.957 E244.11781
G1 X95.411 Y169.063
M204 S3000
M205 X10 Y10
G0 F3000 X97.221 Y169.685
M204 S1800
M205 X8 Y8
G1 F1800 X80.82 Y153.284 E245.83507
G1 X80.714 Y153.178
M204 S3000
M205 X10 Y10
G0 F3000 X79.311 Y150.588
M204 S1800
M205 X8 Y8
G1 F1800 X98.915 Y170.192 E247.88769
M204 S3000
M205 X10 Y10
G0 F3000 X100.449 Y170.537
M204 S1800
M205 X8 Y8
G1 F1800 X77.846 Y147.935 E250.25426
G1 X77.74 Y147.829
M204 S3000
M205 X10 Y10
G0 F3000 X76.373 Y145.274
M204 S1800
M205 X8 Y8
G1 F1800 X101.866 Y170.766 E252.92344
M204 S3000
M205 X10 Y10
G0 F3000 X103.187 Y170.899
M204 S1800
M205 X8 Y8
G1 F1800 X74.888 Y142.601 E255.88641
G1 X74.782 Y142.495
M204 S3000
M205 X10 Y10
