;FLAVOR:Marlin
;TIME:4951
;Filament used: 14.6563m
;Layer height: 0.4
;Generated with Cura_SteamEngine 3.6.0
M140 S70
M105
M190 S70
M104 S230
M105
M109 S230
M82 ;absolute extrusion mode
G21 ;metric values
G90 ;absolute positioning
M82 ;set extruder to absolute mode
M107 ;start with the fan off
G28 X0 Y0 ;move X/Y to min endstops
G28 Z0 ;move Z to min endstops
G1 Z15.0 F100 ;move the platform down 15mm
G92 E0 ;zero the extruded length
G1 F200 E3 ;extrude 3mm of feed stock
G92 E0 ;zero the extruded length again
G1 F100
M117 Printing...
G5
G92 E0
G1 F2400 E-2
;LAYER_COUNT:21
;LAYER:0
M106 S255
M204 S3000
M205 X10 Y10
G0 F3000 X37.367 Y55.414 Z0.2
M204 S1800
M205 X8 Y8
;TYPE:SKIRT
G1 F2400 E0
G1 X37.985 Y55.09 E0.05166
G1 X38.637 Y54.838 E0.10341
G1 X39.313 Y54.663 E0.15511
G1 X40.004 Y54.566 E0.20677
G1 X40.502 Y54.546 E0.24367
G1 X139.863 Y54.535 E7.60007
G1 X140.279 Y54.549 E7.63089
G1 X142.99 Y54.734 E7.83207
G1 X143.651 Y54.816 E7.88138
G1 X147.016 Y55.419 E8.13449
G1 X147.704 Y55.584 E8.18687
G1 X150.319 Y56.374 E8.38912
G1 X150.842 Y56.558 E8.43016
G1 X152.87 Y57.378 E8.59212
G1 X153.384 Y57.614 E8.634
G1 X155.858 Y58.893 E8.84019
G1 X156.342 Y59.172 E8.88155
G1 X158.165 Y60.337 E9.04173
G1 X158.627 Y60.663 E9.08359
G1 X160.829 Y62.377 E9.29019
G1 X161.255 Y62.741 E9.33168
G1 X162.828 Y64.216 E9.49133
G1 X163.223 Y64.623 E9.53332
G1 X165.088 Y66.73 E9.74165
G1 X165.442 Y67.169 E9.7834
G1 X166.714 Y68.906 E9.9428
G1 X166.947 Y69.249 E9.9735
G1 X167.741 Y70.504 E10.08345
G1 X167.957 Y70.873 E10.1151
G1 X169.042 Y72.888 E10.28454
G1 X169.28 Y73.381 E10.32507
G1 X170.289 Y75.74 E10.51503
G1 X170.451 Y76.163 E10.54857
G1 X170.903 Y77.483 E10.65187
G1 X171.023 Y77.875 E10.68222
G1 X171.607 Y80.047 E10.84874
G1 X171.726 Y80.586 E10.88961
G1 X172.167 Y83.121 E11.08011
G1 X172.228 Y83.571 E11.11373
G1 X172.365 Y84.968 E11.21766
G1 X172.391 Y85.371 E11.24755
G1 X172.46 Y87.567 E11.41022
G1 X172.452 Y88.129 E11.45183
G1 X172.286 Y90.862 E11.65455
G1 X172.226 Y91.423 E11.69632
G1 X171.887 Y93.618 E11.86076
G1 X171.776 Y94.166 E11.90216
G1 X171.114 Y96.814 E12.10424
G1 X170.938 Y97.393 E12.14904
G1 X170.081 Y99.784 E12.33709
G1 X169.867 Y100.304 E12.37873
G1 X168.743 Y102.714 E12.57561
G1 X168.547 Y103.098 E12.60753
G1 X139.463 Y155.452 E17.04161
G1 X139.09 Y156.042 E17.09329
G1 X138.651 Y156.586 E17.14504
G1 X138.154 Y157.076 E17.19672
G1 X137.603 Y157.505 E17.24842
G1 X137.007 Y157.869 E17.30012
G1 X136.374 Y158.163 E17.3518
G1 X135.711 Y158.382 E17.40349
G1 X135.027 Y158.524 E17.45521
G1 X134.131 Y158.59 E17.52173
G1 X40.502 Y158.591 E24.45375
G1 X39.805 Y158.551 E24.50543
G1 X39.117 Y158.432 E24.55713
G1 X38.447 Y158.234 E24.60885
G1 X37.804 Y157.962 E24.66054
G1 X37.197 Y157.618 E24.7122
G1 X36.632 Y157.206 E24.76397
G1 X36.119 Y156.733 E24.81563
G1 X35.663 Y156.205 E24.86729
G1 X35.27 Y155.627 E24.91903
G1 X34.946 Y155.009 E24.9707
G1 X34.694 Y154.357 E25.02245
G1 X34.519 Y153.681 E25.07415
G1 X34.422 Y152.99 E25.12581
G1 X34.402 Y152.491 E25.16278
G1 X34.403 Y60.646 E31.96272
G1 X34.443 Y59.949 E32.0144
G1 X34.562 Y59.261 E32.0661
G1 X34.76 Y58.591 E32.11782
G1 X35.032 Y57.948 E32.16951
G1 X35.376 Y57.34 E32.22123
G1 X35.788 Y56.776 E32.27295
G1 X36.261 Y56.263 E32.32461
G1 X36.79 Y55.807 E32.37632
G1 X37.367 Y55.414 E32.428
M204 S3000
M205 X10 Y10
G0 F3000 X37.603 Y56.258
M204 S1800
M205 X8 Y8
G1 F2400 X38.165 Y55.934 E32.47603
G1 X38.762 Y55.682 E32.52401
G1 X39.386 Y55.506 E32.57201
G1 X40.027 Y55.408 E32.62002
G1 X40.502 Y55.386 E32.65522
G1 X139.863 Y55.375 E40.01162
G1 X140.222 Y55.387 E40.03821
G1 X142.933 Y55.572 E40.2394
G1 X143.503 Y55.642 E40.28191
G1 X146.868 Y56.245 E40.53502
G1 X147.461 Y56.388 E40.58018
G1 X150.076 Y57.178 E40.78243
G1 X150.527 Y57.337 E40.81783
G1 X152.555 Y58.157 E40.97979
G1 X152.999 Y58.36 E41.01593
G1 X155.473 Y59.639 E41.22213
G1 X155.889 Y59.88 E41.25773
G1 X157.712 Y61.045 E41.4179
G1 X158.111 Y61.326 E41.45403
G1 X160.313 Y63.04 E41.66063
G1 X160.68 Y63.354 E41.69639
G1 X162.253 Y64.829 E41.85604
G1 X162.594 Y65.18 E41.89227
G1 X164.459 Y67.287 E42.1006
G1 X164.764 Y67.665 E42.13656
G1 X166.036 Y69.402 E42.29596
G1 X166.237 Y69.698 E42.32245
G1 X167.031 Y70.953 E42.4324
G1 X167.217 Y71.271 E42.45968
G1 X168.302 Y73.286 E42.62911
G1 X168.507 Y73.711 E42.66405
G1 X169.516 Y76.07 E42.85401
G1 X169.656 Y76.435 E42.88295
G1 X170.108 Y77.755 E42.98625
G1 X170.212 Y78.093 E43.01243
G1 X170.796 Y80.265 E43.17895
G1 X170.898 Y80.729 E43.21413
G1 X171.339 Y83.264 E43.40463
G1 X171.392 Y83.653 E43.43369
G1 X171.529 Y85.05 E43.53762
G1 X171.551 Y85.398 E43.56344
G1 X171.62 Y87.594 E43.7261
G1 X171.613 Y88.078 E43.76194
G1 X171.447 Y90.811 E43.96466
G1 X171.395 Y91.295 E44.0007
G1 X171.056 Y93.49 E44.16513
G1 X170.961 Y93.963 E44.20085
G1 X170.299 Y96.611 E44.40294
G1 X170.148 Y97.11 E44.44154
G1 X169.291 Y99.501 E44.62959
G1 X169.106 Y99.949 E44.66547
G1 X167.982 Y102.359 E44.86235
G1 X167.813 Y102.69 E44.88987
G1 X138.729 Y155.044 E49.32395
G1 X138.38 Y155.591 E49.37199
G1 X137.966 Y156.09 E49.42
G1 X137.494 Y156.534 E49.46797
G1 X136.971 Y156.917 E49.51597
G1 X136.405 Y157.233 E49.56396
G1 X135.804 Y157.477 E49.61198
G1 X135.178 Y157.645 E49.65997
G1 X134.535 Y157.734 E49.70803
G1 X134.131 Y157.75 E49.73797
G1 X40.502 Y157.751 E56.66998
G1 X39.855 Y157.711 E56.71798
G1 X39.218 Y157.592 E56.76595
G1 X38.6 Y157.395 E56.81398
G1 X38.011 Y157.124 E56.86198
G1 X37.46 Y156.782 E56.90999
G1 X36.955 Y156.375 E56.95801
G1 X36.504 Y155.909 E57.00603
G1 X36.114 Y155.391 E57.05403
G1 X35.79 Y154.829 E57.10206
G1 X35.538 Y154.232 E57.15004
G1 X35.362 Y153.608 E57.19804
G1 X35.264 Y152.967 E57.24605
G1 X35.242 Y152.491 E57.28133
G1 X35.243 Y60.646 E64.08126
G1 X35.283 Y59.999 E64.12925
G1 X35.402 Y59.361 E64.1773
G1 X35.599 Y58.744 E64.22526
G1 X35.87 Y58.155 E64.27326
G1 X36.212 Y57.604 E64.32127
G1 X36.619 Y57.099 E64.36929
G1 X37.085 Y56.648 E64.41731
G1 X37.603 Y56.258 E64.46531
M204 S3000
M205 X10 Y10
G0 F3000 X38.406 Y56.755
M204 S1800
M205 X8 Y8
G1 F2400 X38.947 Y56.509 E64.50931
G1 X39.516 Y56.338 E64.5533
G1 X40.103 Y56.244 E64.59731
G1 X40.503 Y56.226 E64.62696
G1 X139.864 Y56.215 E71.98336
G1 X140.165 Y56.225 E72.00565
G1 X142.876 Y56.41 E72.20683
G1 X143.355 Y56.469 E72.24257
G1 X146.72 Y57.072 E72.49567
G1 X147.218 Y57.192 E72.53359
G1 X149.833 Y57.982 E72.73584
G1 X150.212 Y58.115 E72.76558
G1 X152.24 Y58.935 E72.92754
G1 X152.613 Y59.107 E72.95795
G1 X155.087 Y60.386 E73.16415
G1 X155.437 Y60.588 E73.19406
G1 X157.26 Y61.753 E73.35424
G1 X157.595 Y61.989 E73.38458
G1 X159.797 Y63.703 E73.59118
G1 X160.105 Y63.967 E73.62121
G1 X161.678 Y65.442 E73.78086
G1 X161.965 Y65.736 E73.81128
G1 X163.83 Y67.843 E74.01961
G1 X164.086 Y68.162 E74.04989
G1 X165.358 Y69.899 E74.20929
G1 X165.527 Y70.147 E74.23151
G1 X166.321 Y71.402 E74.34146
G1 X166.478 Y71.669 E74.36439
G1 X167.563 Y73.684 E74.53383
G1 X167.735 Y74.042 E74.56323
G1 X168.744 Y76.401 E74.75319
G1 X168.862 Y76.707 E74.77747
G1 X169.314 Y78.027 E74.88077
G1 X169.4 Y78.311 E74.90274
G1 X169.984 Y80.483 E75.06926
G1 X170.071 Y80.873 E75.09885
G1 X170.512 Y83.408 E75.28935
G1 X170.556 Y83.735 E75.31378
G1 X170.693 Y85.132 E75.4177
G1 X170.712 Y85.424 E75.43937
G1 X170.781 Y87.62 E75.60203
G1 X170.775 Y88.027 E75.63217
G1 X170.609 Y90.76 E75.83489
G1 X170.565 Y91.167 E75.8652
G1 X170.226 Y93.362 E76.02963
G1 X170.146 Y93.759 E76.05962
G1 X169.484 Y96.407 E76.2617
G1 X169.357 Y96.826 E76.29412
G1 X168.5 Y99.217 E76.48217
G1 X168.345 Y99.594 E76.51235
G1 X167.221 Y102.004 E76.70923
G1 X167.079 Y102.282 E76.73234
G1 X137.995 Y154.636 E81.16642
G1 X137.672 Y155.135 E81.21043
G1 X137.285 Y155.587 E81.25449
G1 X136.841 Y155.982 E81.29849
G1 X136.348 Y156.314 E81.34249
G1 X135.815 Y156.577 E81.3865
G1 X135.252 Y156.766 E81.43046
G1 X134.668 Y156.877 E81.47448
G1 X134.131 Y156.91 E81.51431
G1 X40.502 Y156.911 E88.44632
G1 X39.909 Y156.871 E88.49033
G1 X39.327 Y156.752 E88.53431
G1 X38.766 Y156.556 E88.57831
G1 X38.236 Y156.286 E88.62234
G1 X37.748 Y155.948 E88.66629
G1 X37.309 Y155.547 E88.71031
G1 X36.928 Y155.091 E88.75431
G1 X36.611 Y154.588 E88.79833
G1 X36.365 Y154.047 E88.84233
G1 X36.194 Y153.478 E88.88632
G1 X36.1 Y152.891 E88.93033
G1 X36.082 Y152.491 E88.95998
G1 X36.083 Y60.646 E95.75991
G1 X36.123 Y60.053 E95.80391
G1 X36.242 Y59.471 E95.84789
G1 X36.438 Y58.91 E95.89189
G1 X36.708 Y58.38 E95.93593
G1 X37.046 Y57.892 E95.97988
G1 X37.447 Y57.453 E96.0239
G1 X37.903 Y57.072 E96.06789
G1 X38.406 Y56.755 E96.11191
M204 S3000
M205 X10 Y10
G1 F2400 E94.11191
;MESH:drukuj na koniec.stl
G0 F3000 X41.757 Y59.958
G0 X41.767 Y61.896
G0 X42.175 Y61.984
G0 X42.175 Y61.884
M204 S1800
M205 X8 Y8
;TYPE:WALL-INNER
G1 F2400 E96.11191
G1 F1800 X46.791 Y61.907 E96.45367
G1 X129.208 Y61.907 E102.55559
G1 X137.049 Y61.882 E103.13611
G1 X139.911 Y61.886 E103.34801
G1 X140.964 Y61.944 E103.42609
G1 X141.884 Y62.007 E103.49436
G1 X143.03 Y62.14 E103.57978
G1 X144.22 Y62.335 E103.66905
G1 X145.367 Y62.576 E103.75583
G1 X146.528 Y62.877 E103.84463
G1 X147.626 Y63.218 E103.92975
G1 X148.765 Y63.63 E104.01943
G1 X149.859 Y64.082 E104.10706
G1 X150.903 Y64.572 E104.19245
G1 X151.975 Y65.137 E104.28217
G1 X152.989 Y65.734 E104.36928
G1 X153.97 Y66.372 E104.45592
G1 X154.941 Y67.071 E104.5445
G1 X155.84 Y67.782 E104.62936
G1 X156.767 Y68.589 E104.72036
G1 X157.61 Y69.394 E104.80666
G1 X158.426 Y70.25 E104.89422
G1 X159.209 Y71.148 E104.98243
G1 X159.949 Y72.083 E105.07071
G1 X160.619 Y73.014 E105.15563
G1 X161.275 Y74.021 E105.24461
G1 X161.874 Y75.041 E105.33219
G1 X162.422 Y76.08 E105.41915
G1 X162.928 Y77.156 E105.50719
G1 X163.371 Y78.224 E105.59279
G1 X163.789 Y79.381 E105.68387
G1 X164.13 Y80.479 E105.76899
G1 X164.432 Y81.644 E105.8581
G1 X164.672 Y82.787 E105.94457
G1 X164.867 Y83.978 E106.03392
G1 X165 Y85.12 E106.11904
G1 X165.082 Y86.303 E106.20684
G1 X165.111 Y87.49 E106.29475
G1 X165.082 Y88.69 E106.38362
G1 X165 Y89.877 E106.47171
G1 X164.867 Y91.023 E106.55712
G1 X164.672 Y92.213 E106.6464
G1 X164.432 Y93.356 E106.73287
G1 X164.13 Y94.521 E106.82198
G1 X163.787 Y95.626 E106.90764
G1 X163.384 Y96.742 E106.99549
G1 X162.928 Y97.845 E107.08385
G1 X162.424 Y98.915 E107.17142
G1 X162.082 Y99.606 E107.2285
G1 X160.746 Y102.024 E107.43303
G1 X157.031 Y108.656 E107.99584
G1 X137.632 Y143.575 E110.9533
G1 X134.315 Y149.59 E111.46185
G1 X133.396 Y151.24 E111.60169
G1 X41.753 Y151.24 E118.38666
G1 X41.753 Y62.304 E124.97122
G1 X41.753 Y62.303 E124.9713
G1 X41.753 Y61.882 E125.00247
G1 X42.174 Y61.883 E125.02261
G1 X42.175 Y61.884 E125.02271
M204 S3000
M205 X10 Y10
G0 F3000 X42.175 Y61.984
G0 X46.788 Y62.006
G0 X46.793 Y61.067
M204 S1800
M205 X8 Y8
;TYPE:WALL-OUTER
G1 F1800 X129.207 Y61.067 E131.1244
G1 X137.047 Y61.042 E131.70485
G1 X139.94 Y61.046 E131.91904
G1 X141.01 Y61.105 E131.99838
G1 X141.953 Y61.17 E132.06837
G1 X143.152 Y61.309 E132.15773
G1 X144.376 Y61.509 E132.24956
G1 X145.557 Y61.758 E132.33892
G1 X146.754 Y62.068 E132.43046
G1 X147.902 Y62.424 E132.51945
G1 X149.06 Y62.843 E132.61062
G1 X150.196 Y63.313 E132.70164
G1 X151.285 Y63.824 E132.79071
G1 X152.383 Y64.403 E132.88261
G1 X153.428 Y65.018 E132.97238
G1 X154.453 Y65.684 E133.06288
G1 X155.442 Y66.396 E133.15311
G1 X156.386 Y67.143 E133.24223
G1 X157.328 Y67.963 E133.3347
G1 X158.205 Y68.8 E133.42445
G1 X159.041 Y69.677 E133.51416
G1 X159.858 Y70.614 E133.6062
G1 X160.616 Y71.572 E133.69664
G1 X161.323 Y72.555 E133.78629
G1 X161.985 Y73.571 E133.87607
G1 X162.604 Y74.624 E133.9665
G1 X163.182 Y75.722 E134.05837
G1 X163.694 Y76.81 E134.1474
G1 X164.161 Y77.938 E134.23779
G1 X164.583 Y79.105 E134.32966
G1 X164.939 Y80.253 E134.41865
G1 X165.25 Y81.454 E134.5105
G1 X165.498 Y82.631 E134.59956
G1 X165.698 Y83.855 E134.69138
G1 X165.837 Y85.05 E134.78045
G1 X165.922 Y86.269 E134.87092
G1 X165.951 Y87.49 E134.96134
G1 X165.922 Y88.724 E135.05273
G1 X165.837 Y89.946 E135.14342
G1 X165.698 Y91.145 E135.23279
G1 X165.498 Y92.369 E135.32461
G1 X165.25 Y93.546 E135.41367
G1 X164.939 Y94.747 E135.50552
G1 X164.583 Y95.895 E135.59451
G1 X164.168 Y97.044 E135.68495
G1 X163.697 Y98.182 E135.77614
G1 X163.177 Y99.288 E135.86662
G1 X162.833 Y99.983 E135.92404
G1 X161.479 Y102.434 E136.13135
G1 X157.765 Y109.065 E136.69405
G1 X138.367 Y143.982 E139.65135
G1 X135.049 Y149.999 E140.16007
G1 X133.89 Y152.08 E140.33642
G1 X40.913 Y152.08 E147.22017
G1 X40.913 Y61.047 E153.95998
G1 X41.997 Y61.041 E154.04024
G1 X46.793 Y61.067 E154.39533
M204 S3000
M205 X10 Y10
G0 F3000 X47.093 Y61.067
G0 X47.093 Y62.007
G0 X46.789 Y62.737
M204 S1800
M205 X8 Y8
;TYPE:SKIN
G1 F1800 X129.21 Y62.737 E160.49754
G1 X137.049 Y62.712 E161.07792
G1 X139.901 Y62.716 E161.28907
G1 X140.907 Y62.772 E161.36367
G1 X141.819 Y62.835 E161.43135
G1 X142.91 Y62.961 E161.51266
G1 X144.068 Y63.151 E161.59954
G1 X145.159 Y63.38 E161.68208
G1 X146.297 Y63.675 E161.76912
G1 X147.369 Y64.008 E161.85222
G1 X148.474 Y64.408 E161.93923
G1 X149.534 Y64.846 E162.02415
G1 X150.516 Y65.307 E162.10446
G1 X151.588 Y65.872 E162.19418
G1 X152.546 Y66.436 E162.27649
G1 X153.494 Y67.052 E162.36019
G1 X154.447 Y67.738 E162.44713
G1 X155.31 Y68.421 E162.52861
G1 X156.208 Y69.203 E162.61677
G1 X157.023 Y69.981 E162.70019
G1 X157.812 Y70.809 E162.78487
G1 X158.57 Y71.678 E162.87024
G1 X159.298 Y72.598 E162.9571
G1 X159.939 Y73.49 E163.03843
G1 X160.559 Y74.442 E163.12254
G1 X161.158 Y75.462 E163.21012
G1 X161.671 Y76.434 E163.29149
G1 X162.161 Y77.474 E163.3766
G1 X162.59 Y78.506 E163.45935
G1 X163.002 Y79.646 E163.54909
G1 X163.331 Y80.706 E163.63127
G1 X163.628 Y81.852 E163.71892
G1 X163.856 Y82.939 E163.80115
G1 X164.045 Y84.093 E163.88772
G1 X164.172 Y85.177 E163.96853
G1 X164.252 Y86.323 E164.05358
G1 X164.281 Y87.47 E164.13853
G1 X164.252 Y88.658 E164.22651
G1 X164.172 Y89.812 E164.31216
G1 X164.046 Y90.903 E164.39347
G1 X163.856 Y92.061 E164.48035
G1 X163.628 Y93.148 E164.56258
G1 X163.332 Y94.291 E164.64999
G1 X163.006 Y95.344 E164.73161
G1 X162.603 Y96.459 E164.81938
G1 X162.177 Y97.491 E164.90204
G1 X161.673 Y98.561 E164.98961
G1 X161.355 Y99.205 E165.04279
G1 X159.953 Y101.743 E165.25746
G1 X156.306 Y108.251 E165.80979
G1 X136.906 Y143.173 E168.76748
G1 X132.908 Y150.41 E169.37961
G1 X42.583 Y150.41 E176.06701
G1 X42.583 Y62.716 E182.55961
G1 X46.789 Y62.737 E182.87102
M204 S3000
M205 X10 Y10
G0 F3000 X43.104 Y150.019
M204 S1800
M205 X8 Y8
G1 F1800 X42.973 Y149.887 E182.88479
M204 S3000
M205 X10 Y10
G0 F3000 X42.973 Y148.699
M204 S1800
M205 X8 Y8
G1 F1800 X44.292 Y150.019 E183.02294
M204 S3000
M205 X10 Y10
G0 F3000 X45.48 Y150.019
M204 S1800
M205 X8 Y8
G1 F1800 X42.973 Y147.511 E183.28549
M204 S3000
M205 X10 Y10
G0 F3000 X42.973 Y146.323
M204 S1800
M205 X8 Y8
G1 F1800 X46.668 Y150.019 E183.67242
M204 S3000
M205 X10 Y10
G0 F3000 X47.856 Y150.019
M204 S1800
M205 X8 Y8
G1 F1800 X42.973 Y145.135 E184.18375
M204 S3000
M205 X10 Y10
G0 F3000 X42.973 Y143.947
M204 S1800
M205 X8 Y8
G1 F1800 X49.044 Y150.019 E184.81946
M204 S3000
M205 X10 Y10
G0 F3000 X50.232 Y150.019
M204 S1800
M205 X8 Y8
G1 F1800 X42.973 Y142.759 E185.57956
M204 S3000
M205 X10 Y10
G0 F3000 X42.973 Y141.571
M204 S1800
M205 X8 Y8
G1 F1800 X51.42 Y150.019 E186.46405
M204 S3000
M205 X10 Y10
G0 F3000 X52.608 Y150.019
M204 S1800
M205 X8 Y8
G1 F1800 X42.973 Y140.384 E187.47287
M204 S3000
M205 X10 Y10
G0 F3000 X42.973 Y139.196
M204 S1800
M205 X8 Y8
G1 F1800 X53.795 Y150.019 E188.60603
M204 S3000
M205 X10 Y10
G0 F3000 X54.983 Y150.019
M204 S1800
M205 X8 Y8
G1 F1800 X42.973 Y138.008 E189.86358
M204 S3000
M205 X10 Y10
