;FLAVOR:Marlin
;TIME:6662
;Filament used: 14.9513m
;Layer height: 0.3
;Generated with Cura_SteamEngine 3.6.0
M140 S70
M105
M190 S70
M104 S230
M105
M109 S230
M82 ;absolute extrusion mode
G21 ;metric values
G90 ;absolute positioning
M82 ;set extruder to absolute mode
M107 ;start with the fan off
G28 X0 Y0 ;move X/Y to min endstops
G28 Z0 ;move Z to min endstops
G1 Z15.0 F100 ;move the platform down 15mm
G92 E0 ;zero the extruded length
G1 F200 E3 ;extrude 3mm of feed stock
G92 E0 ;zero the extruded length again
G1 F100
M117 Printing...
G5
G92 E0
G1 F2400 E-2
;LAYER_COUNT:28
;LAYER:0
M106 S255
M204 S3000
M205 X10 Y10
G0 F3000 X26.803 Y63.869 Z0.2
M204 S1800
M205 X8 Y8
;TYPE:SKIRT
G1 F2400 E0
G1 X27.321 Y63.677 E0.0409
G1 X29.394 Y63.015 E0.20202
G1 X29.779 Y62.906 E0.23164
G1 X31.159 Y62.563 E0.33692
G1 X31.622 Y62.467 E0.37193
G1 X34.205 Y62.034 E0.56583
G1 X34.723 Y61.97 E0.60448
G1 X36.906 Y61.794 E0.76662
G1 X37.395 Y61.774 E0.80286
G1 X137.363 Y61.757 E8.2042
G1 X138.06 Y61.797 E8.25588
G1 X138.748 Y61.916 E8.30758
G1 X139.418 Y62.113 E8.35928
G1 X140.061 Y62.386 E8.411
G1 X140.669 Y62.73 E8.46272
G1 X141.233 Y63.141 E8.51439
G1 X141.747 Y63.614 E8.56611
G1 X142.203 Y64.143 E8.61781
G1 X142.596 Y64.72 E8.6695
G1 X142.92 Y65.338 E8.72116
G1 X143.171 Y65.99 E8.77289
G1 X143.347 Y66.666 E8.82461
G1 X143.443 Y67.357 E8.87626
G1 X143.464 Y67.856 E8.91323
G1 X143.477 Y159.709 E15.71376
G1 X143.437 Y160.406 E15.76545
G1 X143.318 Y161.094 E15.81714
G1 X143.121 Y161.764 E15.86885
G1 X142.848 Y162.407 E15.92057
G1 X142.504 Y163.015 E15.97229
G1 X142.093 Y163.579 E16.02395
G1 X141.62 Y164.093 E16.07567
G1 X141.091 Y164.549 E16.12738
G1 X140.514 Y164.942 E16.17907
G1 X139.895 Y165.266 E16.23079
G1 X139.244 Y165.517 E16.28245
G1 X138.568 Y165.693 E16.33417
G1 X137.877 Y165.79 E16.38583
G1 X137.377 Y165.81 E16.42288
G1 X43.747 Y165.809 E23.35497
G1 X43.05 Y165.769 E23.40666
G1 X42.362 Y165.65 E23.45835
G1 X41.692 Y165.452 E23.51008
G1 X41.049 Y165.18 E23.56177
G1 X40.441 Y164.836 E23.61349
G1 X39.877 Y164.424 E23.6652
G1 X39.364 Y163.951 E23.71686
G1 X38.908 Y163.422 E23.76857
G1 X38.415 Y162.673 E23.83496
G1 X10.715 Y112.841 E28.05605
G1 X10.656 Y112.731 E28.06529
G1 X8.704 Y109.043 E28.37423
G1 X8.487 Y108.59 E28.41142
G1 X7.635 Y106.6 E28.57169
G1 X7.432 Y106.053 E28.61489
G1 X6.592 Y103.42 E28.81951
G1 X6.447 Y102.882 E28.86076
G1 X5.97 Y100.723 E29.02446
G1 X5.874 Y100.17 E29.06601
G1 X5.544 Y97.554 E29.26123
G1 X5.504 Y97.107 E29.29446
G1 X5.433 Y95.739 E29.39588
G1 X5.426 Y95.33 E29.42616
G1 X5.46 Y93.101 E29.59121
G1 X5.494 Y92.538 E29.63297
G1 X5.788 Y89.818 E29.83552
G1 X5.902 Y89.133 E29.88694
G1 X6.645 Y85.835 E30.13723
G1 X6.839 Y85.159 E30.1893
G1 X7.76 Y82.53 E30.39554
G1 X7.971 Y82.006 E30.43736
G1 X8.897 Y79.985 E30.60195
G1 X9.159 Y79.478 E30.6442
G1 X10.547 Y77.072 E30.84985
G1 X10.926 Y76.494 E30.90103
G1 X12.914 Y73.805 E31.14861
G1 X13.277 Y73.359 E31.19119
G1 X14.37 Y72.14 E31.3124
G1 X14.665 Y71.834 E31.34387
G1 X16.237 Y70.309 E31.50603
G1 X16.66 Y69.935 E31.54783
G1 X18.79 Y68.221 E31.75025
G1 X19.26 Y67.878 E31.79332
G1 X21.261 Y66.561 E31.97068
G1 X21.716 Y66.289 E32.00993
G1 X23.76 Y65.185 E32.18192
G1 X24.285 Y64.933 E32.22504
G1 X26.803 Y63.869 E32.42742
M204 S3000
M205 X10 Y10
G0 F3000 X27.13 Y64.643
M204 S1800
M205 X8 Y8
G1 F2400 X27.577 Y64.477 E32.46273
G1 X29.65 Y63.815 E32.62384
G1 X29.981 Y63.721 E32.64932
G1 X31.361 Y63.378 E32.7546
G1 X31.76 Y63.295 E32.78477
G1 X34.343 Y62.862 E32.97868
G1 X34.79 Y62.807 E33.01202
G1 X36.973 Y62.631 E33.17417
G1 X37.395 Y62.614 E33.20544
G1 X137.363 Y62.597 E40.60677
G1 X138.01 Y62.637 E40.65477
G1 X138.648 Y62.756 E40.70282
G1 X139.265 Y62.953 E40.75077
G1 X139.854 Y63.224 E40.79877
G1 X140.405 Y63.565 E40.84675
G1 X140.91 Y63.972 E40.89477
G1 X141.361 Y64.438 E40.94278
G1 X141.752 Y64.956 E40.99083
G1 X142.075 Y65.518 E41.03882
G1 X142.327 Y66.115 E41.0868
G1 X142.504 Y66.739 E41.13482
G1 X142.602 Y67.38 E41.18283
G1 X142.624 Y67.856 E41.21811
G1 X142.637 Y159.709 E48.01864
G1 X142.597 Y160.356 E48.06663
G1 X142.478 Y160.994 E48.11468
G1 X142.281 Y161.612 E48.1627
G1 X142.01 Y162.201 E48.2107
G1 X141.668 Y162.752 E48.25872
G1 X141.262 Y163.256 E48.30663
G1 X140.796 Y163.707 E48.35465
G1 X140.278 Y164.098 E48.4027
G1 X139.716 Y164.421 E48.45069
G1 X139.119 Y164.673 E48.49867
G1 X138.495 Y164.85 E48.54669
G1 X137.854 Y164.948 E48.5947
G1 X137.377 Y164.97 E48.63005
G1 X43.747 Y164.969 E55.56214
G1 X43.1 Y164.929 E55.61013
G1 X42.462 Y164.81 E55.65818
G1 X41.845 Y164.613 E55.70614
G1 X41.256 Y164.342 E55.75414
G1 X40.705 Y164 E55.80215
G1 X40.2 Y163.593 E55.85017
G1 X39.749 Y163.127 E55.89819
G1 X39.359 Y162.609 E55.94619
G1 X39.15 Y162.265 E55.97599
G1 X11.45 Y112.433 E60.19709
G1 X11.398 Y112.338 E60.20511
G1 X9.446 Y108.65 E60.51405
G1 X9.26 Y108.259 E60.5461
G1 X8.408 Y106.269 E60.70637
G1 X8.232 Y105.798 E60.7436
G1 X7.392 Y103.165 E60.94822
G1 X7.267 Y102.701 E60.9838
G1 X6.79 Y100.542 E61.1475
G1 X6.707 Y100.065 E61.18334
G1 X6.377 Y97.449 E61.37856
G1 X6.343 Y97.064 E61.40717
G1 X6.272 Y95.696 E61.50859
G1 X6.266 Y95.343 E61.53473
G1 X6.3 Y93.114 E61.69978
G1 X6.329 Y92.629 E61.73575
G1 X6.623 Y89.909 E61.93831
G1 X6.722 Y89.318 E61.98267
G1 X7.465 Y86.02 E62.23296
G1 X7.632 Y85.437 E62.27786
G1 X8.553 Y82.808 E62.48411
G1 X8.735 Y82.356 E62.52018
G1 X9.661 Y80.335 E62.68477
G1 X9.887 Y79.898 E62.72119
G1 X11.275 Y77.492 E62.92684
G1 X11.601 Y76.993 E62.97097
G1 X13.589 Y74.304 E63.21856
G1 X13.903 Y73.92 E63.25528
G1 X14.996 Y72.701 E63.3765
G1 X15.249 Y72.437 E63.40357
G1 X16.821 Y70.912 E63.56573
G1 X17.186 Y70.589 E63.60181
G1 X19.316 Y68.875 E63.80423
G1 X19.722 Y68.579 E63.84143
G1 X21.723 Y67.262 E64.01879
G1 X22.115 Y67.028 E64.05259
G1 X24.159 Y65.924 E64.22458
G1 X24.612 Y65.707 E64.26177
G1 X27.13 Y64.643 E64.46415
M204 S3000
M205 X10 Y10
G0 F3000 X27.457 Y65.417
M204 S1800
M205 X8 Y8
G1 F2400 X27.832 Y65.277 E64.49379
G1 X29.905 Y64.615 E64.65491
G1 X30.184 Y64.537 E64.67635
G1 X31.564 Y64.194 E64.78163
G1 X31.899 Y64.124 E64.80697
G1 X34.482 Y63.691 E65.00088
G1 X34.858 Y63.644 E65.02893
G1 X37.041 Y63.468 E65.19108
G1 X37.395 Y63.454 E65.21731
G1 X137.363 Y63.437 E72.61865
G1 X137.956 Y63.477 E72.66265
G1 X138.538 Y63.596 E72.70663
G1 X139.1 Y63.792 E72.7507
G1 X139.629 Y64.062 E72.79467
G1 X140.118 Y64.4 E72.83868
G1 X140.557 Y64.8 E72.88265
G1 X140.938 Y65.256 E72.92665
G1 X141.255 Y65.759 E72.97067
G1 X141.501 Y66.3 E73.01467
G1 X141.672 Y66.869 E73.05865
G1 X141.766 Y67.456 E73.10267
G1 X141.784 Y67.856 E73.13231
G1 X141.797 Y159.709 E79.93284
G1 X141.757 Y160.302 E79.97684
G1 X141.638 Y160.885 E80.0209
G1 X141.442 Y161.446 E80.06489
G1 X141.172 Y161.975 E80.10886
G1 X140.834 Y162.464 E80.15288
G1 X140.433 Y162.903 E80.1969
G1 X139.978 Y163.284 E80.24083
G1 X139.475 Y163.601 E80.28485
G1 X138.934 Y163.847 E80.32885
G1 X138.365 Y164.018 E80.37284
G1 X137.778 Y164.112 E80.41686
G1 X137.377 Y164.13 E80.44657
G1 X43.747 Y164.129 E87.37866
G1 X43.154 Y164.089 E87.42267
G1 X42.572 Y163.97 E87.46665
G1 X42.011 Y163.774 E87.51065
G1 X41.481 Y163.504 E87.55468
G1 X40.993 Y163.166 E87.59863
G1 X40.554 Y162.765 E87.64265
G1 X40.173 Y162.309 E87.68665
G1 X39.884 Y161.856 E87.72643
G1 X12.184 Y112.024 E91.94753
G1 X12.14 Y111.945 E91.95423
G1 X10.188 Y108.257 E92.26316
G1 X10.032 Y107.929 E92.29005
G1 X9.18 Y105.939 E92.45032
G1 X9.032 Y105.542 E92.48169
G1 X8.192 Y102.909 E92.68631
G1 X8.087 Y102.52 E92.71614
G1 X7.61 Y100.361 E92.87984
G1 X7.541 Y99.96 E92.90997
G1 X7.211 Y97.344 E93.10518
G1 X7.182 Y97.02 E93.12927
G1 X7.111 Y95.652 E93.23069
G1 X7.106 Y95.356 E93.2526
G1 X7.14 Y93.127 E93.41765
G1 X7.165 Y92.719 E93.44792
G1 X7.459 Y89.999 E93.65047
G1 X7.541 Y89.503 E93.68769
G1 X8.284 Y86.205 E93.93798
G1 X8.425 Y85.715 E93.97573
G1 X9.346 Y83.086 E94.18198
G1 X9.499 Y82.706 E94.21231
G1 X10.425 Y80.685 E94.37689
G1 X10.614 Y80.317 E94.40752
G1 X12.002 Y77.911 E94.61317
G1 X12.277 Y77.492 E94.65028
G1 X14.265 Y74.803 E94.89786
G1 X14.528 Y74.48 E94.9287
G1 X15.621 Y73.261 E95.04992
G1 X15.834 Y73.04 E95.07264
G1 X17.406 Y71.515 E95.2348
G1 X17.713 Y71.243 E95.26516
G1 X19.843 Y69.529 E95.46758
G1 X20.184 Y69.281 E95.4988
G1 X22.185 Y67.964 E95.67616
G1 X22.514 Y67.767 E95.70455
G1 X24.558 Y66.663 E95.87654
G1 X24.939 Y66.481 E95.9078
G1 X27.457 Y65.417 E96.11019
M204 S3000
M205 X10 Y10
G1 F2400 E94.11019
;MESH:klapka_dol_lewa.stl
G0 F3000 X26.162 Y70.05
G0 X26.986 Y71.809
G0 X21.095 Y116.112
G0 X21.008 Y116.16
M204 S1800
M205 X8 Y8
;TYPE:WALL-INNER
G1 F2400 E96.11019
G1 F1800 X17.173 Y109.312 E96.69128
G1 X15.795 Y106.821 E96.90205
G1 X15.335 Y105.876 E96.97986
G1 X14.952 Y105.062 E97.04647
G1 X14.496 Y103.962 E97.13463
G1 X14.093 Y102.845 E97.22254
G1 X13.75 Y101.74 E97.30821
G1 X13.449 Y100.579 E97.39701
G1 X13.205 Y99.424 E97.48441
G1 X13.013 Y98.243 E97.57299
G1 X12.88 Y97.096 E97.65848
G1 X12.798 Y95.909 E97.74657
G1 X12.769 Y94.729 E97.83396
G1 X12.798 Y93.522 E97.92335
G1 X12.88 Y92.338 E98.01122
G1 X13.013 Y91.195 E98.09642
G1 X13.206 Y90.01 E98.18531
G1 X13.449 Y88.859 E98.2724
G1 X13.75 Y87.698 E98.3612
G1 X14.093 Y86.592 E98.44693
G1 X14.499 Y85.467 E98.53548
G1 X14.962 Y84.351 E98.62494
G1 X15.445 Y83.323 E98.70903
G1 X16.01 Y82.251 E98.79874
G1 X16.605 Y81.24 E98.8856
G1 X17.261 Y80.233 E98.97458
G1 X17.931 Y79.302 E99.0595
G1 X18.674 Y78.363 E99.14815
G1 X19.451 Y77.473 E99.23562
G1 X20.284 Y76.6 E99.32496
G1 X21.111 Y75.81 E99.40964
G1 X22.03 Y75.011 E99.4998
G1 X22.94 Y74.291 E99.58571
G1 X23.911 Y73.592 E99.67429
G1 X24.892 Y72.954 E99.76093
G1 X25.906 Y72.357 E99.84805
G1 X26.978 Y71.792 E99.93776
G1 X28.021 Y71.302 E100.02308
G1 X29.116 Y70.85 E100.11079
G1 X30.241 Y70.443 E100.19936
G1 X31.368 Y70.094 E100.28671
G1 X32.52 Y69.795 E100.37483
G1 X33.661 Y69.555 E100.46115
G1 X34.851 Y69.36 E100.55043
G1 X35.997 Y69.227 E100.63585
G1 X37.202 Y69.144 E100.72527
G1 X37.975 Y69.106 E100.78257
G1 X40.735 Y69.1 E100.98691
G1 X48.272 Y69.126 E101.54494
G1 X127.488 Y69.126 E107.40986
G1 X135.023 Y69.101 E107.96773
G1 X136.127 Y69.104 E108.04946
G1 X136.127 Y158.459 E114.66505
G1 X44.482 Y158.459 E121.45017
G1 X41.041 Y152.224 E121.97743
G1 X21.008 Y116.16 E125.03179
M204 S3000
M205 X10 Y10
G0 F3000 X21.095 Y116.112
G0 X41.128 Y152.176
G0 X40.306 Y152.631
M204 S1800
M205 X8 Y8
;TYPE:WALL-OUTER
G1 F1800 X20.274 Y116.569 E128.08598
G1 X16.44 Y109.722 E128.66698
G1 X15.048 Y107.204 E128.88
G1 X14.58 Y106.244 E128.95907
G1 X14.183 Y105.401 E129.02805
G1 X13.715 Y104.272 E129.11854
G1 X13.297 Y103.114 E129.20969
G1 X12.941 Y101.966 E129.29868
G1 X12.63 Y100.765 E129.39053
G1 X12.38 Y99.584 E129.4799
G1 X12.182 Y98.365 E129.57134
G1 X12.043 Y97.165 E129.66078
G1 X11.958 Y95.943 E129.75147
G1 X11.929 Y94.729 E129.84137
G1 X11.958 Y93.488 E129.93328
G1 X12.043 Y92.269 E130.02375
G1 X12.182 Y91.073 E130.11289
G1 X12.381 Y89.849 E130.20471
G1 X12.63 Y88.673 E130.2937
G1 X12.941 Y87.472 E130.38555
G1 X13.297 Y86.324 E130.47454
G1 X13.718 Y85.157 E130.56639
G1 X14.186 Y84.029 E130.65681
G1 X14.697 Y82.941 E130.7458
G1 X15.276 Y81.843 E130.83771
G1 X15.895 Y80.79 E130.92814
G1 X16.557 Y79.774 E131.01792
G1 X17.264 Y78.791 E131.10757
G1 X18.034 Y77.818 E131.19943
G1 X18.826 Y76.911 E131.28858
G1 X19.676 Y76.02 E131.37976
G1 X20.552 Y75.183 E131.46946
G1 X21.495 Y74.363 E131.56198
G1 X22.439 Y73.616 E131.6511
G1 X23.428 Y72.904 E131.74133
G1 X24.453 Y72.238 E131.83183
G1 X25.498 Y71.623 E131.9216
G1 X26.596 Y71.044 E132.0135
G1 X27.684 Y70.533 E132.1025
G1 X28.821 Y70.063 E132.19359
G1 X29.979 Y69.644 E132.28476
G1 X31.128 Y69.289 E132.3738
G1 X32.329 Y68.977 E132.46567
G1 X33.505 Y68.729 E132.55465
G1 X34.729 Y68.529 E132.64647
G1 X35.928 Y68.39 E132.73584
G1 X37.152 Y68.305 E132.82668
G1 X37.954 Y68.266 E132.88613
G1 X40.736 Y68.26 E133.0921
G1 X48.273 Y68.286 E133.65012
G1 X127.487 Y68.286 E139.51489
G1 X135.023 Y68.261 E140.07284
G1 X136.967 Y68.267 E140.21677
G1 X136.967 Y159.299 E146.95651
G1 X43.988 Y159.299 E153.8404
G1 X43.054 Y157.619 E153.98271
G1 X40.306 Y152.631 E154.40434
M204 S3000
M205 X10 Y10
G0 F3000 X40.161 Y152.369
G0 X40.983 Y151.914
G0 X41.767 Y151.822
M204 S1800
M205 X8 Y8
;TYPE:SKIN
G1 F1800 X21.733 Y115.755 E157.45894
G1 X17.946 Y108.994 E158.03267
G1 X16.534 Y106.442 E158.24861
G1 X16.082 Y105.513 E158.3251
G1 X15.713 Y104.728 E158.38932
G1 X15.271 Y103.662 E158.47476
G1 X14.874 Y102.563 E158.56127
G1 X14.548 Y101.51 E158.64288
G1 X14.253 Y100.371 E158.72999
G1 X14.024 Y99.286 E158.81209
G1 X13.833 Y98.11 E158.9003
G1 X13.708 Y97.031 E158.98072
G1 X13.628 Y95.876 E159.06644
G1 X13.599 Y94.729 E159.15139
G1 X13.628 Y93.542 E159.2393
G1 X13.708 Y92.395 E159.32442
G1 X13.833 Y91.329 E159.40389
G1 X14.026 Y90.144 E159.49278
G1 X14.253 Y89.067 E159.57427
G1 X14.549 Y87.924 E159.66168
G1 X14.874 Y86.874 E159.74306
G1 X15.28 Y85.749 E159.83161
G1 X15.729 Y84.669 E159.9182
G1 X16.18 Y83.71 E159.99667
G1 X16.745 Y82.638 E160.08638
G1 X17.32 Y81.661 E160.17031
G1 X17.941 Y80.709 E160.25447
G1 X18.582 Y79.817 E160.33579
G1 X19.312 Y78.894 E160.42292
G1 X20.064 Y78.033 E160.50755
G1 X20.878 Y77.18 E160.59485
G1 X21.656 Y76.436 E160.67455
G1 X22.575 Y75.637 E160.76471
G1 X23.434 Y74.957 E160.84582
G1 X24.387 Y74.272 E160.93272
G1 X25.335 Y73.656 E161.01642
G1 X26.293 Y73.092 E161.09872
G1 X27.365 Y72.527 E161.18844
G1 X28.364 Y72.058 E161.27015
G1 X29.398 Y71.631 E161.35297
G1 X30.515 Y71.227 E161.44092
G1 X31.588 Y70.895 E161.52407
G1 X32.729 Y70.599 E161.61135
G1 X33.813 Y70.371 E161.69336
G1 X34.971 Y70.181 E161.78024
G1 X36.062 Y70.055 E161.86155
G1 X37.259 Y69.972 E161.95039
G1 X37.977 Y69.936 E162.00361
G1 X40.735 Y69.93 E162.20781
G1 X48.27 Y69.956 E162.76568
G1 X127.49 Y69.956 E168.6309
G1 X135.297 Y69.932 E169.20891
G1 X135.297 Y157.629 E175.70173
G1 X44.972 Y157.629 E182.38913
G1 X41.767 Y151.822 E182.8802
M204 S3000
M205 X10 Y10
G0 F3000 X45.572 Y157.238
M204 S1800
M205 X8 Y8
G1 F1800 X44.745 Y156.411 E182.96679
M204 S3000
M205 X10 Y10
G0 F3000 X46.76 Y157.238
M204 S1800
M205 X8 Y8
G1 F1800 X43.282 Y153.761 E183.3309
G1 X43.176 Y153.655
M204 S3000
M205 X10 Y10
G0 F3000 X41.816 Y151.106
M204 S1800
M205 X8 Y8
G1 F1800 X47.948 Y157.238 E183.97295
M204 S3000
M205 X10 Y10
G0 F3000 X49.136 Y157.238
M204 S1800
M205 X8 Y8
G1 F1800 X40.331 Y148.434 E184.89481
G1 X40.225 Y148.328
M204 S3000
M205 X10 Y10
G0 F3000 X38.847 Y145.762
M204 S1800
M205 X8 Y8
G1 F1800 X50.324 Y157.238 E186.09645
M204 S3000
M205 X10 Y10
G0 F3000 X51.512 Y157.238
M204 S1800
M205 X8 Y8
G1 F1800 X37.363 Y143.09 E187.57786
G1 X37.257 Y142.984
M204 S3000
M205 X10 Y10
G0 F3000 X35.879 Y140.417
M204 S1800
M205 X8 Y8
G1 F1800 X52.699 Y157.238 E189.33904
M204 S3000
M205 X10 Y10
G0 F3000 X53.887 Y157.238
M204 S1800
M205 X8 Y8
G1 F1800 X34.395 Y137.745 E191.37998
G1 X34.289 Y137.639
M204 S3000
M205 X10 Y10
G0 F3000 X32.91 Y135.073
M204 S1800
M205 X8 Y8
G1 F1800 X55.075 Y157.238 E193.70075
M204 S3000
M205 X10 Y10
G0 F3000 X56.263 Y157.238
M204 S1800
M205 X8 Y8
G1 F1800 X31.425 Y132.4 E196.3014
G1 X31.319 Y132.294
M204 S3000
M205 X10 Y10
G0 F3000 X29.941 Y129.728
M204 S1800
M205 X8 Y8
G1 F1800 X57.451 Y157.238 E199.18181
M204 S3000
M205 X10 Y10
G0 F3000 X58.639 Y157.238
M204 S1800
M205 X8 Y8
G1 F1800 X28.457 Y127.056 E202.34199
G1 X28.351 Y126.95
M204 S3000
M205 X10 Y10
G0 F3000 X26.973 Y124.384
M204 S1800
M205 X8 Y8
G1 F1800 X59.827 Y157.238 E205.78194
M204 S3000
M205 X10 Y10
G0 F3000 X61.015 Y157.238
M204 S1800
M205 X8 Y8
G1 F1800 X25.489 Y121.712 E209.50167
