;FLAVOR:Marlin
;TIME:6675
;Filament used: 15.0214m
;Layer height: 0.3
;Generated with Cura_SteamEngine 3.6.0
M140 S70
M105
M190 S70
M104 S230
M105
M109 S230
M82 ;absolute extrusion mode
G21 ;metric values
G90 ;absolute positioning
M82 ;set extruder to absolute mode
M107 ;start with the fan off
G28 X0 Y0 ;move X/Y to min endstops
G28 Z0 ;move Z to min endstops
G1 Z15.0 F100 ;move the platform down 15mm
G92 E0 ;zero the extruded length
G1 F200 E3 ;extrude 3mm of feed stock
G92 E0 ;zero the extruded length again
G1 F100
M117 Printing...
G5
G92 E0
G1 F2400 E-2
;LAYER_COUNT:28
;LAYER:0
M106 S255
M204 S3000
M205 X10 Y10
G0 F3000 X8.629 Y66.809 Z0.2
M204 S1800
M205 X8 Y8
;TYPE:SKIRT
G1 F2400 E0
G1 X9.126 Y66.789 E0.03683
G1 X105.89 Y66.765 E7.20095
G1 X106.021 Y66.766 E7.21065
G1 X110.029 Y66.851 E7.50745
G1 X110.553 Y66.885 E7.54633
G1 X112.902 Y67.138 E7.72125
G1 X113.479 Y67.228 E7.76449
G1 X116.058 Y67.759 E7.95943
G1 X116.585 Y67.892 E7.99967
G1 X118.683 Y68.523 E8.16188
G1 X119.219 Y68.712 E8.20396
G1 X121.776 Y69.749 E8.40825
G1 X122.279 Y69.981 E8.44926
G1 X124.216 Y70.98 E8.61062
G1 X124.712 Y71.266 E8.65301
G1 X127.05 Y72.765 E8.85863
G1 X127.501 Y73.083 E8.89948
G1 X129.227 Y74.424 E9.06131
G1 X129.66 Y74.795 E9.10352
G1 X131.667 Y76.68 E9.30738
G1 X132.058 Y77.082 E9.3489
G1 X133.52 Y78.733 E9.51217
G1 X133.873 Y79.171 E9.55382
G1 X135.503 Y81.395 E9.75797
G1 X135.815 Y81.864 E9.79967
G1 X136.944 Y83.747 E9.96222
G1 X137.212 Y84.245 E10.00409
G1 X138.405 Y86.731 E10.20824
G1 X138.572 Y87.114 E10.23918
G1 X138.941 Y88.041 E10.31305
G1 X139.085 Y88.442 E10.34459
G1 X139.907 Y91.017 E10.54472
G1 X140.052 Y91.555 E10.58597
G1 X140.538 Y93.753 E10.75263
G1 X140.634 Y94.309 E10.79441
G1 X140.963 Y96.924 E10.98954
G1 X141.003 Y97.37 E11.02269
G1 X141.073 Y98.722 E11.12293
G1 X141.08 Y99.13 E11.15314
G1 X141.046 Y101.361 E11.31833
G1 X141.012 Y101.921 E11.35987
G1 X140.723 Y104.605 E11.55973
G1 X140.638 Y105.156 E11.60101
G1 X140.2 Y107.332 E11.76535
G1 X140.062 Y107.882 E11.80733
G1 X139.265 Y110.536 E12.01249
G1 X139.118 Y110.967 E12.04621
G1 X138.683 Y112.101 E12.13613
G1 X138.518 Y112.49 E12.16742
G1 X137.371 Y114.954 E12.36864
G1 X137.173 Y115.342 E12.40089
G1 X108.089 Y167.695 E16.83491
G1 X107.716 Y168.285 E16.88659
G1 X107.277 Y168.829 E16.93834
G1 X106.78 Y169.319 E16.99002
G1 X106.229 Y169.748 E17.04172
G1 X105.633 Y170.112 E17.09342
G1 X105 Y170.406 E17.1451
G1 X104.337 Y170.625 E17.19679
G1 X103.653 Y170.767 E17.24851
G1 X102.757 Y170.833 E17.31503
G1 X9.127 Y170.834 E24.24712
G1 X8.43 Y170.794 E24.29881
G1 X7.742 Y170.675 E24.3505
G1 X7.072 Y170.477 E24.40223
G1 X6.429 Y170.205 E24.45392
G1 X5.822 Y169.861 E24.50557
G1 X5.257 Y169.449 E24.55734
G1 X4.744 Y168.976 E24.60901
G1 X4.288 Y168.448 E24.66066
G1 X3.895 Y167.87 E24.71241
G1 X3.571 Y167.252 E24.76407
G1 X3.319 Y166.6 E24.81582
G1 X3.144 Y165.924 E24.86752
G1 X3.047 Y165.233 E24.91918
G1 X3.027 Y164.734 E24.95616
G1 X3.028 Y72.889 E31.75609
G1 X3.068 Y72.192 E31.80778
G1 X3.187 Y71.504 E31.85947
G1 X3.385 Y70.834 E31.9112
G1 X3.657 Y70.191 E31.96289
G1 X4.001 Y69.583 E32.01461
G1 X4.413 Y69.019 E32.06632
G1 X4.886 Y68.506 E32.11798
G1 X5.415 Y68.05 E32.16969
G1 X5.992 Y67.657 E32.22138
G1 X6.61 Y67.333 E32.27304
G1 X7.262 Y67.081 E32.32479
G1 X7.938 Y66.906 E32.37649
G1 X8.629 Y66.809 E32.42815
M204 S3000
M205 X10 Y10
G0 F3000 X8.652 Y67.651
M204 S1800
M205 X8 Y8
G1 F2400 X9.127 Y67.629 E32.46336
G1 X105.891 Y67.605 E39.62748
G1 X106.004 Y67.606 E39.63584
G1 X110.012 Y67.691 E39.93265
G1 X110.463 Y67.72 E39.96611
G1 X112.812 Y67.973 E40.14103
G1 X113.31 Y68.051 E40.17835
G1 X115.889 Y68.582 E40.3733
G1 X116.343 Y68.697 E40.40797
G1 X118.441 Y69.328 E40.57017
G1 X118.903 Y69.491 E40.60645
G1 X121.46 Y70.528 E40.81073
G1 X121.894 Y70.727 E40.84608
G1 X123.831 Y71.726 E41.00744
G1 X124.259 Y71.973 E41.04403
G1 X126.597 Y73.472 E41.24965
G1 X126.985 Y73.746 E41.28482
G1 X128.711 Y75.087 E41.44664
G1 X129.085 Y75.407 E41.48308
G1 X131.092 Y77.292 E41.68694
G1 X131.429 Y77.639 E41.72275
G1 X132.891 Y79.29 E41.88602
G1 X133.196 Y79.668 E41.92198
G1 X134.826 Y81.892 E42.12613
G1 X135.094 Y82.296 E42.16202
G1 X136.223 Y84.179 E42.32457
G1 X136.454 Y84.608 E42.36065
G1 X137.647 Y87.094 E42.5648
G1 X137.792 Y87.425 E42.59156
G1 X138.161 Y88.352 E42.66543
G1 X138.285 Y88.697 E42.69257
G1 X139.107 Y91.272 E42.89269
G1 X139.232 Y91.736 E42.92827
G1 X139.718 Y93.934 E43.09493
G1 X139.801 Y94.413 E43.13093
G1 X140.13 Y97.028 E43.32606
G1 X140.164 Y97.413 E43.35467
G1 X140.234 Y98.765 E43.45491
G1 X140.24 Y99.117 E43.48097
G1 X140.206 Y101.348 E43.64617
G1 X140.177 Y101.831 E43.68199
G1 X139.888 Y104.515 E43.88186
G1 X139.815 Y104.99 E43.91744
G1 X139.377 Y107.166 E44.08177
G1 X139.258 Y107.641 E44.11803
G1 X138.461 Y110.295 E44.32319
G1 X138.334 Y110.666 E44.35222
G1 X137.899 Y111.8 E44.44215
G1 X137.757 Y112.136 E44.46915
G1 X136.61 Y114.6 E44.67038
G1 X136.439 Y114.934 E44.69816
G1 X107.355 Y167.287 E49.13218
G1 X107.006 Y167.834 E49.18022
G1 X106.592 Y168.333 E49.22822
G1 X106.12 Y168.777 E49.2762
G1 X105.597 Y169.16 E49.32419
G1 X105.031 Y169.476 E49.37218
G1 X104.43 Y169.72 E49.42021
G1 X103.804 Y169.888 E49.4682
G1 X103.161 Y169.977 E49.51626
G1 X102.757 Y169.993 E49.54619
G1 X9.127 Y169.994 E56.47828
G1 X8.48 Y169.954 E56.52627
G1 X7.843 Y169.835 E56.57425
G1 X7.225 Y169.638 E56.62227
G1 X6.636 Y169.367 E56.67028
G1 X6.085 Y169.025 E56.71829
G1 X5.58 Y168.618 E56.76631
G1 X5.129 Y168.152 E56.81432
G1 X4.739 Y167.634 E56.86233
G1 X4.415 Y167.072 E56.91036
G1 X4.163 Y166.475 E56.95833
G1 X3.987 Y165.851 E57.00634
G1 X3.889 Y165.21 E57.05434
G1 X3.867 Y164.734 E57.08962
G1 X3.868 Y72.889 E63.88956
G1 X3.908 Y72.242 E63.93755
G1 X4.027 Y71.604 E63.9856
G1 X4.224 Y70.987 E64.03355
G1 X4.495 Y70.398 E64.08156
G1 X4.837 Y69.847 E64.12957
G1 X5.244 Y69.342 E64.17759
G1 X5.71 Y68.891 E64.2256
G1 X6.228 Y68.501 E64.27361
G1 X6.79 Y68.177 E64.32164
G1 X7.387 Y67.925 E64.36961
G1 X8.011 Y67.749 E64.41762
G1 X8.652 Y67.651 E64.46562
M204 S3000
M205 X10 Y10
G0 F3000 X8.728 Y68.487
M204 S1800
M205 X8 Y8
G1 F2400 X9.127 Y68.469 E64.4952
G1 X105.891 Y68.445 E71.65932
G1 X105.986 Y68.446 E71.66635
G1 X109.994 Y68.531 E71.96316
G1 X110.373 Y68.555 E71.99128
G1 X112.722 Y68.808 E72.16619
G1 X113.14 Y68.874 E72.19753
G1 X115.719 Y69.405 E72.39247
G1 X116.101 Y69.501 E72.42163
G1 X118.199 Y70.132 E72.58384
G1 X118.587 Y70.269 E72.6143
G1 X121.144 Y71.306 E72.81859
G1 X121.509 Y71.474 E72.84834
G1 X123.446 Y72.473 E73.0097
G1 X123.806 Y72.68 E73.04044
G1 X126.144 Y74.179 E73.24606
G1 X126.47 Y74.41 E73.27565
G1 X128.196 Y75.751 E73.43747
G1 X128.51 Y76.019 E73.46803
G1 X130.517 Y77.904 E73.67189
G1 X130.8 Y78.196 E73.70199
G1 X132.262 Y79.847 E73.86527
G1 X132.518 Y80.164 E73.89543
G1 X134.148 Y82.388 E74.09958
G1 X134.374 Y82.728 E74.12981
G1 X135.503 Y84.611 E74.29236
G1 X135.697 Y84.972 E74.3227
G1 X136.89 Y87.458 E74.52685
G1 X137.012 Y87.735 E74.54926
G1 X137.381 Y88.662 E74.62313
G1 X137.485 Y88.953 E74.64601
G1 X138.307 Y91.528 E74.84613
G1 X138.412 Y91.918 E74.87604
G1 X138.898 Y94.116 E75.0427
G1 X138.967 Y94.518 E75.0729
G1 X139.296 Y97.133 E75.26803
G1 X139.325 Y97.456 E75.29204
G1 X139.395 Y98.808 E75.39227
G1 X139.4 Y99.104 E75.41419
G1 X139.366 Y101.335 E75.57939
G1 X139.342 Y101.741 E75.6095
G1 X139.053 Y104.425 E75.80936
G1 X138.991 Y104.824 E75.83926
G1 X138.553 Y107 E76.0036
G1 X138.453 Y107.399 E76.03405
G1 X137.656 Y110.053 E76.23921
G1 X137.55 Y110.365 E76.26361
G1 X137.115 Y111.499 E76.35353
G1 X136.995 Y111.781 E76.37622
G1 X135.848 Y114.245 E76.57745
G1 X135.705 Y114.526 E76.60079
G1 X106.621 Y166.879 E81.03481
G1 X106.298 Y167.378 E81.07882
G1 X105.911 Y167.83 E81.12287
G1 X105.467 Y168.225 E81.16687
G1 X104.974 Y168.557 E81.21088
G1 X104.441 Y168.82 E81.25488
G1 X103.878 Y169.009 E81.29885
G1 X103.294 Y169.12 E81.34286
G1 X102.757 Y169.153 E81.3827
G1 X9.127 Y169.154 E88.31479
G1 X8.534 Y169.114 E88.35879
G1 X7.952 Y168.995 E88.40277
G1 X7.391 Y168.799 E88.44677
G1 X6.861 Y168.529 E88.49081
G1 X6.373 Y168.191 E88.53476
G1 X5.934 Y167.79 E88.57878
G1 X5.553 Y167.334 E88.62277
G1 X5.236 Y166.831 E88.66679
G1 X4.99 Y166.29 E88.71079
G1 X4.819 Y165.721 E88.75478
G1 X4.725 Y165.134 E88.79879
G1 X4.707 Y164.734 E88.82844
G1 X4.708 Y72.889 E95.62837
G1 X4.748 Y72.296 E95.67237
G1 X4.867 Y71.714 E95.71636
G1 X5.063 Y71.153 E95.76035
G1 X5.333 Y70.623 E95.80439
G1 X5.671 Y70.135 E95.84834
G1 X6.072 Y69.696 E95.89236
G1 X6.528 Y69.315 E95.93636
G1 X7.031 Y68.998 E95.98037
G1 X7.572 Y68.752 E96.02438
G1 X8.141 Y68.581 E96.06836
G1 X8.728 Y68.487 E96.11238
M204 S3000
M205 X10 Y10
G1 F2400 E94.11238
;MESH:klapka_dol_prawa.stl
G0 F3000 X10.382 Y72.201
G0 X10.392 Y74.139
G0 X10.8 Y74.227
G0 X10.8 Y74.127
M204 S1800
M205 X8 Y8
;TYPE:WALL-INNER
G1 F2400 E96.11238
G1 F1800 X15.417 Y74.15 E96.45421
G1 X97.834 Y74.15 E102.55612
G1 X105.675 Y74.125 E103.13665
G1 X108.537 Y74.129 E103.34854
G1 X109.589 Y74.187 E103.42655
G1 X110.51 Y74.25 E103.4949
G1 X111.655 Y74.383 E103.58024
G1 X112.846 Y74.578 E103.66959
G1 X113.993 Y74.819 E103.75637
G1 X115.149 Y75.119 E103.84479
G1 X116.266 Y75.466 E103.93139
G1 X117.383 Y75.869 E104.0193
G1 X118.485 Y76.325 E104.1076
G1 X119.538 Y76.82 E104.19375
G1 X120.592 Y77.374 E104.28191
G1 X121.604 Y77.97 E104.36886
G1 X122.618 Y78.631 E104.45847
G1 X123.556 Y79.306 E104.54403
G1 X124.476 Y80.034 E104.63089
G1 X125.383 Y80.823 E104.7199
G1 X126.236 Y81.637 E104.80719
G1 X127.052 Y82.493 E104.89475
G1 X127.836 Y83.393 E104.98312
G1 X128.573 Y84.323 E105.07097
G1 X129.258 Y85.276 E105.15787
G1 X129.892 Y86.248 E105.24379
G1 X130.5 Y87.283 E105.33266
G1 X131.055 Y88.338 E105.42092
G1 X131.543 Y89.375 E105.50577
G1 X132.003 Y90.485 E105.59473
G1 X132.41 Y91.61 E105.6833
G1 X132.761 Y92.745 E105.77126
G1 X133.058 Y93.889 E105.85877
G1 X133.298 Y95.03 E105.94509
G1 X133.493 Y96.221 E106.03444
G1 X133.626 Y97.363 E106.11957
G1 X133.708 Y98.545 E106.20729
G1 X133.737 Y99.733 E106.29527
G1 X133.708 Y100.933 E106.38414
G1 X133.626 Y102.12 E106.47223
G1 X133.493 Y103.265 E106.55757
G1 X133.298 Y104.456 E106.64693
G1 X133.058 Y105.597 E106.73325
G1 X132.761 Y106.741 E106.82076
G1 X132.408 Y107.883 E106.90926
G1 X132.013 Y108.977 E106.99537
G1 X131.546 Y110.103 E107.08562
G1 X131.05 Y111.158 E107.17193
G1 X130.708 Y111.849 E107.22901
G1 X129.373 Y114.265 E107.43338
G1 X125.656 Y120.898 E107.99632
G1 X106.258 Y155.818 E110.95381
G1 X102.941 Y161.833 E111.46237
G1 X102.022 Y163.483 E111.6022
G1 X10.378 Y163.483 E118.38725
G1 X10.378 Y74.547 E124.97181
G1 X10.378 Y74.546 E124.97188
G1 X10.378 Y74.125 E125.00305
G1 X10.799 Y74.126 E125.02319
G1 X10.8 Y74.127 E125.0233
M204 S3000
M205 X10 Y10
G0 F3000 X10.8 Y74.227
G0 X15.414 Y74.249
G0 X15.419 Y73.31
M204 S1800
M205 X8 Y8
;TYPE:WALL-OUTER
G1 F1800 X97.833 Y73.31 E131.12499
G1 X105.673 Y73.285 E131.70544
G1 X108.566 Y73.289 E131.91963
G1 X109.635 Y73.348 E131.9989
G1 X110.579 Y73.413 E132.06895
G1 X111.777 Y73.552 E132.15824
G1 X113.002 Y73.752 E132.25014
G1 X114.183 Y74.001 E132.3395
G1 X115.376 Y74.31 E132.43074
G1 X116.535 Y74.67 E132.52059
G1 X117.685 Y75.085 E132.61111
G1 X118.822 Y75.556 E132.70223
G1 X119.911 Y76.067 E132.79129
G1 X121.009 Y76.645 E132.88316
G1 X122.054 Y77.26 E132.97293
G1 X123.077 Y77.927 E133.06335
G1 X124.067 Y78.639 E133.15363
G1 X125.011 Y79.386 E133.24276
G1 X125.954 Y80.206 E133.33528
G1 X126.831 Y81.043 E133.42503
G1 X127.667 Y81.92 E133.51474
G1 X128.483 Y82.857 E133.60673
G1 X129.242 Y83.815 E133.69722
G1 X129.948 Y84.798 E133.78683
G1 X130.611 Y85.814 E133.87665
G1 X131.23 Y86.866 E133.96702
G1 X131.808 Y87.965 E134.05895
G1 X132.319 Y89.053 E134.14794
G1 X132.787 Y90.181 E134.23836
G1 X133.209 Y91.348 E134.33024
G1 X133.564 Y92.497 E134.41927
G1 X133.876 Y93.698 E134.51114
G1 X134.124 Y94.874 E134.60013
G1 X134.324 Y96.098 E134.69195
G1 X134.463 Y97.293 E134.78102
G1 X134.548 Y98.511 E134.87142
G1 X134.577 Y99.733 E134.96192
G1 X134.548 Y100.967 E135.0533
G1 X134.463 Y102.189 E135.14399
G1 X134.324 Y103.387 E135.23329
G1 X134.124 Y104.612 E135.32518
G1 X133.876 Y105.788 E135.41416
G1 X133.564 Y106.989 E135.50603
G1 X133.209 Y108.138 E135.59507
G1 X132.794 Y109.287 E135.68552
G1 X132.319 Y110.433 E135.77736
G1 X131.803 Y111.531 E135.86719
G1 X131.459 Y112.226 E135.9246
G1 X130.105 Y114.676 E136.13185
G1 X126.39 Y121.307 E136.69459
G1 X106.993 Y156.225 E139.65191
G1 X103.675 Y162.242 E140.16063
G1 X102.516 Y164.323 E140.33699
G1 X9.538 Y164.323 E147.22081
G1 X9.538 Y73.29 E153.96062
G1 X10.622 Y73.284 E154.04088
G1 X15.419 Y73.31 E154.39604
M204 S3000
M205 X10 Y10
G0 F3000 X15.719 Y73.31
G0 X15.719 Y74.25
G0 X15.415 Y74.98
M204 S1800
M205 X8 Y8
;TYPE:SKIN
G1 F1800 X97.836 Y74.98 E160.49825
G1 X105.675 Y74.955 E161.07863
G1 X108.527 Y74.959 E161.28978
G1 X109.532 Y75.015 E161.3643
G1 X110.445 Y75.078 E161.43206
G1 X111.535 Y75.204 E161.5133
G1 X112.694 Y75.394 E161.60025
G1 X113.784 Y75.623 E161.68272
G1 X114.921 Y75.918 E161.76968
G1 X116.009 Y76.256 E161.85403
G1 X117.085 Y76.644 E161.93872
G1 X118.159 Y77.089 E162.02479
G1 X119.161 Y77.56 E162.10676
G1 X120.197 Y78.104 E162.19339
G1 X121.169 Y78.677 E162.27693
G1 X122.142 Y79.311 E162.36291
G1 X123.054 Y79.966 E162.44605
G1 X123.945 Y80.672 E162.53021
G1 X124.824 Y81.437 E162.61648
G1 X125.649 Y82.224 E162.7009
G1 X126.438 Y83.052 E162.78558
G1 X127.198 Y83.924 E162.87122
G1 X127.918 Y84.832 E162.95701
G1 X128.578 Y85.752 E163.04084
G1 X129.176 Y86.669 E163.12189
G1 X129.774 Y87.687 E163.20931
G1 X130.312 Y88.709 E163.29482
G1 X130.776 Y89.693 E163.37536
G1 X131.222 Y90.767 E163.46146
G1 X131.629 Y91.892 E163.55004
G1 X131.962 Y92.972 E163.63371
G1 X132.254 Y94.098 E163.71983
G1 X132.482 Y95.182 E163.80185
G1 X132.671 Y96.336 E163.88842
G1 X132.798 Y97.42 E163.96923
G1 X132.878 Y98.565 E164.05421
G1 X132.907 Y99.713 E164.13923
G1 X132.878 Y100.901 E164.22721
G1 X132.798 Y102.055 E164.31286
G1 X132.672 Y103.145 E164.39409
G1 X132.482 Y104.304 E164.48105
G1 X132.254 Y105.388 E164.56306
G1 X131.962 Y106.514 E164.64918
G1 X131.627 Y107.601 E164.7334
G1 X131.242 Y108.668 E164.81738
G1 X130.782 Y109.777 E164.90627
G1 X130.303 Y110.797 E164.9897
G1 X129.981 Y111.448 E165.04347
G1 X128.583 Y113.978 E165.25748
G1 X124.931 Y120.493 E165.81044
G1 X105.532 Y155.416 E168.76816
G1 X101.534 Y162.653 E169.3803
G1 X11.208 Y162.653 E176.06777
G1 X11.208 Y74.959 E182.56037
G1 X15.415 Y74.98 E182.87185
M204 S3000
M205 X10 Y10
G0 F3000 X12.582 Y162.262
M204 S1800
M205 X8 Y8
G1 F1800 X11.597 Y161.278 E182.97493
M204 S3000
M205 X10 Y10
G0 F3000 X11.597 Y160.09
M204 S1800
M205 X8 Y8
G1 F1800 X13.77 Y162.262 E183.2024
M204 S3000
M205 X10 Y10
G0 F3000 X14.958 Y162.262
M204 S1800
M205 X8 Y8
G1 F1800 X11.597 Y158.902 E183.55426
M204 S3000
M205 X10 Y10
G0 F3000 X11.597 Y157.714
M204 S1800
M205 X8 Y8
G1 F1800 X16.146 Y162.262 E184.03051
M204 S3000
M205 X10 Y10
G0 F3000 X17.334 Y162.262
M204 S1800
M205 X8 Y8
G1 F1800 X11.597 Y156.526 E184.63114
M204 S3000
M205 X10 Y10
G0 F3000 X11.597 Y155.338
M204 S1800
M205 X8 Y8
G1 F1800 X18.521 Y162.262 E185.35611
M204 S3000
M205 X10 Y10
G0 F3000 X19.709 Y162.262
M204 S1800
M205 X8 Y8
G1 F1800 X11.597 Y154.15 E186.20548
M204 S3000
M205 X10 Y10
G0 F3000 X11.597 Y152.962
M204 S1800
M205 X8 Y8
G1 F1800 X20.897 Y162.262 E187.17922
M204 S3000
M205 X10 Y10
G0 F3000 X22.085 Y162.262
M204 S1800
M205 X8 Y8
G1 F1800 X11.597 Y151.774 E188.27736
M204 S3000
M205 X10 Y10
G0 F3000 X11.597 Y150.586
M204 S1800
M205 X8 Y8
